!!!!SEGMENT: pl-wtm--r-1680_stefani-jozef--polonez-militarny.krn
!!!cenid: 18xx:2380
!!!COM: Stefani, Józef
!!!COM-rismid: pe30024097
!!!CDT: 1800/04/16-1876/03/19
!!!CNT: Polish
!!!OTL: Polonez militarny
!!!PDT:
!!!AGN:
!!!SMS-siglum: PL-Wtm
!!!SMS-shelfmark: R 1680
!!!SMS-shelfwork: W
!!!SMS-variant:
!!!SMS-altvar:
!!!NIFC-rismid: 1001114543
!!!URL-scan: http://repozytorium.nifc.pl/skany/pl-wtm-nut--r1680
!!!ONB-nifc:
**kern	**dynam	**kern	**dynam	**kern	**dynam	**kern	**dynam	**kern	**dynam	**kern	**dynam	**kern	**dynam	**kern	**dynam	**kern	**dynam	**kern	**dynam	**kern	**kern	**dynam
*part12	*part12	*part11	*part11	*part10	*part10	*part9	*part9	*part8	*part8	*part7	*part7	*part6	*part6	*part5	*part5	*part4	*part4	*part3	*part3	*part2	*part1	*part1
*staff12	*	*staff11	*	*staff10	*	*staff9	*	*staff8	*	*staff7	*	*staff6	*	*staff5	*	*staff4	*	*staff3	*	*staff2	*staff1	*
*I"[Violoncello]	*	*I"[Viola]	*	*I"[Violino]	*	*I"[Violino]	*	*I"[Trombone]	*	*I"[Banda]	*	*I"Trombe in C.	*	*I"[Fagotto]	*	*I"Corni in Es	*	*I"Clarinetti in B.	*	*I"[Flauto]	*I"[Piccolo]	*
*>[A,B,A,B,C,B,D,D,E,D]	*>[A,B,A,B,C,B,D,D,E,D]	*>[A,B,A,B,C,B,D,D,E,D]	*>[A,B,A,B,C,B,D,D,E,D]	*>[A,B,A,B,C,B,D,D,E,D]	*>[A,B,A,B,C,B,D,D,E,D]	*>[A,B,A,B,C,B,D,D,E,D]	*>[A,B,A,B,C,B,D,D,E,D]	*>[A,B,A,B,C,B,D,D,E,D]	*>[A,B,A,B,C,B,D,D,E,D]	*>[A,B,A,B,C,B,D,D,E,D]	*>[A,B,A,B,C,B,D,D,E,D]	*>[A,B,A,B,C,B,D,D,E,D]	*>[A,B,A,B,C,B,D,D,E,D]	*>[A,B,A,B,C,B,D,D,E,D]	*>[A,B,A,B,C,B,D,D,E,D]	*>[A,B,A,B,C,B,D,D,E,D]	*>[A,B,A,B,C,B,D,D,E,D]	*>[A,B,A,B,C,B,D,D,E,D]	*>[A,B,A,B,C,B,D,D,E,D]	*>[A,B,A,B,C,B,D,D,E,D]	*>[A,B,A,B,C,B,D,D,E,D]	*>[A,B,A,B,C,B,D,D,E,D]
*>A	*>A	*>A	*>A	*>A	*>A	*>A	*>A	*>A	*>A	*>A	*>A	*>A	*>A	*>A	*>A	*>A	*>A	*>A	*>A	*>A	*>A	*>A
*clefF4	*	*clefC3	*	*clefG2	*	*clefG2	*	*clefF4	*	*clefF4	*	*clefG2	*	*clefF4	*	*clefG2	*	*clefG2	*	*clefG2	*clefG2	*
*	*	*	*	*	*	*	*	*	*	*	*	*	*	*	*	*ITrd5c9	*	*ITrd1c2	*	*	*	*
*k[b-e-]	*	*k[b-e-]	*	*k[b-e-]	*	*k[b-e-]	*	*k[b-e-]	*	*k[]	*	*k[b-e-]	*	*k[b-e-]	*	*k[b-e-]	*	*k[b-e-]	*	*k[b-e-]	*k[b-e-]	*
*B-:	*	*B-:	*	*B-:	*	*B-:	*	*B-:	*	*B-:	*	*B-:	*	*B-:	*	*B-:	*	*B-:	*	*B-:	*B-:	*
*M3/4	*	*M3/4	*	*M3/4	*	*M3/4	*	*M3/4	*	*M3/4	*	*M3/4	*	*M3/4	*	*M3/4	*	*M3/4	*	*M3/4	*M3/4	*
*all\right	*	*all\right	*	*all\right	*	*all\right	*	*all\right	*	*all\right	*	*all\right	*	*all\right	*	*all\right	*	*all\right	*	*all\right	*all\right	*
=1	=1	=1	=1	=1	=1	=1	=1	=1	=1	=1	=1	=1	=1	=1	=1	=1	=1	=1	=1	=1	=1	=1
*	*	*	*	*	*	*	*	*	*	*^	*	*	*	*	*	*	*	*	*	*	*	*
!	!LO:DY:rj	!	!LO:DY:rj	!	!	!	!LO:DY:rj	!	!	!	!	!	!	!	!	!	!	!	!	!	!	!	!
(32qqF/LLL	f	(32qqf/LLL	f	(32qqf/LLL	.	(32qqff/LLL	f	.	.	.	.	.	.	.	.	.	.	.	.	.	(32qqff/LLL	(32qqff/LLL	.
32qqG/	.	32qqg/	.	32qqg/	.	32qqgg/	.	.	.	.	.	.	.	.	.	.	.	.	.	.	32qqgg/	32qqgg/	.
32qqA/JJJ	.	32qqa/JJJ	.	32qqa/JJJ	.	32qqaa/JJJ	.	.	.	.	.	.	.	.	.	.	.	.	.	.	32qqaa/JJJ	32qqaa/JJJ	.
!	!	!	!	!	!	!	!	!	!LO:DY:rj	!	!	!	!	!	!	!	!LO:TX:t=P:problem:w źródle brak znaków przykluczowych	!LO:DY:rj	!	!	!	!	!
8B-\)	.	8b-\)	.	8b-/)	.	8bb-\)	.	8BB-/L	f	8Ree/L	4Ra\	.	8b-L 8d/	.	8B-\L	.	8fL 8B-/	f	8b-L 8d/	.	8bb-\)	8bb-\)	.
*	*	*	*	*	*	*	*	*	*	*tremolo	*	*	*	*	*	*	*	*	*	*	*	*	*
8r	.	8r	.	8r	.	8r	.	16BB-/L	.	32Ree/LL	.	.	16fL 16d/	.	16B-\L	.	16fL 16B-/	.	16fL 16d/	.	8r	8r	.
.	.	.	.	.	.	.	.	.	.	32Ree/	.	.	.	.	.	.	.	.	.	.	.	.	.
.	.	.	.	.	.	.	.	16BB-/JJ	.	32Ree/	.	.	16fJJ 16d/	.	16B-\JJ	.	16fJJ 16B-/	.	16fJJ 16d/	.	.	.	.
.	.	.	.	.	.	.	.	.	.	32Ree/JJJ	.	.	.	.	.	.	.	.	.	.	.	.	.
*	*	*	*	*	*	*	*	*	*	*Xtremolo	*	*	*	*	*	*	*	*	*	*	*	*	*
4r	.	4r	.	4r	.	4r	.	8BB-/L	.	8Ree/L	4rGG	.	8b-L 8d/	.	8B-\L	.	8fL 8B-/	.	8b-L 8d/	.	4r	4r	.
.	.	.	.	.	.	.	.	8BB-/	.	8Ree/	.	.	8f 8d/	.	8B-\J	.	8fJ 8B-/	.	8f 8d/	.	.	.	.
8r	.	8r	.	8r	.	8r	.	8BB-/	.	8Ree/	8rGG	.	8b- 8d/	.	8B-\L	.	8fL 8B-/	.	8b- 8d/	.	8r	8r	.
32r	.	32r	.	32r	.	32r	.	8FF/J	.	8Ree/J	8Ra\	.	8ccJ 8f/	.	8A\J	.	8f/J	.	8ccJ 8f/	.	32r	32r	.
(32F\LLL	.	(32f\LLL	.	(32f/LLL	.	(32ff\LLL	.	.	.	.	.	.	.	.	.	.	.	.	.	.	(32ff\LLL	(32ff\LLL	.
32G\	.	32g\	.	32g/	.	32gg\	.	.	.	.	.	.	.	.	.	.	.	.	.	.	32gg\	32gg\	.
32A\JJJ	.	32a\JJJ	.	32a/JJJ	.	32aa\JJJ	.	.	.	.	.	.	.	.	.	.	.	.	.	.	32aa\JJJ	32aa\JJJ	.
=2	=2	=2	=2	=2	=2	=2	=2	=2	=2	=2	=2	=2	=2	=2	=2	=2	=2	=2	=2	=2	=2	=2	=2
*	*	*	*	*	*	*	*	*	*	*rep	*rep	*	*	*	*	*	*	*	*	*	*	*	*
8B-\)	.	8b-\)	.	8b-/)	.	8bb-\)	.	8BB-/L	.	8Ree/L	4Ra\	.	8ddL 8b-/	.	8B-\L	.	8fL 8B-/	.	8dd 8b-\	.	8bb-\)	8bb-\)	.
*	*	*	*	*	*	*	*	*	*	*tremolo	*	*	*	*	*	*	*	*	*	*	*	*	*
8r	.	8r	.	8r	.	8r	.	16BB-/L	.	32Ree/LL	.	.	16b-L 16d/	.	16B-\L	.	16fL 16B-/	.	16b-LL 16d/	.	8r	8r	.
.	.	.	.	.	.	.	.	.	.	32Ree/	.	.	.	.	.	.	.	.	.	.	.	.	.
.	.	.	.	.	.	.	.	16BB-/JJ	.	32Ree/	.	.	16b-JJ 16d/	.	16B-\JJ	.	16fJJ 16B-/	.	16b-JJ 16d/	.	.	.	.
.	.	.	.	.	.	.	.	.	.	32Ree/JJJ	.	.	.	.	.	.	.	.	.	.	.	.	.
*	*	*	*	*	*	*	*	*	*	*Xtremolo	*	*	*	*	*	*	*	*	*	*	*	*	*
4r	.	4r	.	4r	.	4r	.	8BB-/L	.	8Ree/L	4r	.	8ddL 8b-/	.	8B-\L	.	8fL 8B-/	.	8ddL 8f/	.	4r	4r	.
.	.	.	.	.	.	.	.	8BB-/	.	8Ree/	.	.	8b- 8d/	.	8B-\	.	8f 8B-/	.	8b- 8d/	.	.	.	.
8r	.	8r	.	8r	.	8r	.	8BB-/	.	8Ree/	8rReeRee	.	8dd 8b-/	.	8B-\	.	8f 8B-/	.	8dd 8f/	.	8r	8r	.
8G-X\	.	8g-X\	.	8b-\	.	8ee-X\	.	8GG-X/J	.	8Ree/J	8Ra\	.	8ee-J 8b-/	.	8G-X\J	.	8g-XJ 8B-/	.	8ee-J 8b-/	.	8bb-\	8eee-\	.
*	*	*	*	*	*	*	*	*	*	*Xrep	*Xrep	*	*	*	*	*	*	*	*	*	*	*	*
=3	=3	=3	=3	=3	=3	=3	=3	=3	=3	=3	=3	=3	=3	=3	=3	=3	=3	=3	=3	=3	=3	=3	=3
*	*	*	*	*	*	*	*	*	*	*	*	*	*^	*	*	*	*^	*	*^	*	*	*	*
!	!	!	!	!	!	!	!	!LO:TX:t=P:problem:mixed beam	!	!	!	!	!	!	!	!	!	!	!	!	!	!	!	!	!	!
8F\	.	8f\	.	8a/	.	8ff 8a\	.	8FF/L	.	4Ree/	4Ra\	.	4cc/	8a\L	.	8F\L	.	8f/L	8f\L	.	8cc/	8a\	.	8aa\	8fff\	.
8r	.	8r	.	8r	.	8r	.	16F\L	.	.	.	.	.	16ff\L	.	16F\L	.	16f/L	16f\L	.	8r	8ryy	.	8r	8r	.
.	.	.	.	.	.	.	.	16F\JJ	.	.	.	.	.	16ff\JJ	.	16F\JJ	.	16f/JJ	16f\JJ	.	.	.	.	.	.	.
4r	.	4r	.	4r	.	8r	.	4F\	.	4r	4ryy	.	8ff 8f\	2ryy	.	4F\	.	8f/L	8f\L	.	4r	4ryy	.	8r	8r	.
.	.	.	.	.	.	8ff\	.	.	.	.	.	.	8f/	.	.	.	.	8f/J	8f\J	.	.	.	.	8ff\	8ff\	.
!	!	!	!	!	!	!	!	!	!	!	!	!	!	!	!	!	!	!	!	!	!LO:N:vis=4.	!	!	!	!	!
4F\	.	4c 4F/	.	4a 4e-X/	.	(16een\LL	.	4F\	.	4r	4ryy	.	(16en/LL	.	.	4F\	.	4f/	4f\	.	4a/	4e-\	.	(16een\LL	(16een\LL	.
.	.	.	.	.	.	16ff\	.	.	.	.	.	.	16f/	.	.	.	.	.	.	.	.	.	.	16ff\	16ff\	.
.	.	.	.	.	.	16gg\	.	.	.	.	.	.	16g/	.	.	.	.	.	.	.	.	.	.	16gg\	16gg\	.
.	.	.	.	.	.	16ff\JJ)	.	.	.	.	.	.	16f/JJ)	.	.	.	.	.	.	.	.	.	.	16ff\JJ)	16ff\JJ)	.
*	*	*	*	*	*	*	*	*	*	*	*	*	*	*	*	*	*	*v	*v	*	*	*	*	*	*	*
*	*	*	*	*	*	*	*	*	*	*	*	*	*v	*v	*	*	*	*	*	*v	*v	*	*	*	*
=4	=4	=4	=4	=4	=4	=4	=4	=4	=4	=4	=4	=4	=4	=4	=4	=4	=4	=4	=4	=4	=4	=4	=4
*	*	*tremolo	*	*tremolo	*	*	*	*	*	*	*	*	*	*	*	*	*	*	*	*	*	*	*
8BB-\L	.	8B-L 8F/	.	8b-L 8d/	.	(16bb-\LL	.	8BB-\L	.	2.ReeTT/	4Ra\	.	(16b-/LL	.	8BB-\L	.	2.f 2.B-/	.	2.b- 2.d/	.	(16bb-\LL	(16bb-\LL	.
.	.	.	.	.	.	16aa\	.	.	.	.	.	.	16a/	.	.	.	.	.	.	.	16aa\	16aa\	.
8D\	.	8B- 8F/	.	8b- 8d/	.	16gg\	.	8D\	.	.	.	.	16g/	.	8D\	.	.	.	.	.	16gg\	16gg\	.
.	.	.	.	.	.	16ff\JJ	.	.	.	.	.	.	16f/JJ	.	.	.	.	.	.	.	16ff\JJ	16ff\JJ	.
8F\	.	8B- 8F/	.	8b- 8d/	.	16ee-X\LL	.	8F\	.	.	4Ra\	.	16ee-\LL	.	8F\	.	.	.	.	.	16ee-\LL	16ee-\LL	.
.	.	.	.	.	.	16dd\	.	.	.	.	.	.	16dd\	.	.	.	.	.	.	.	16dd\	16dd\	.
8B-\	.	8B- 8F/	.	8b- 8d/	.	16cc\	.	8B-\	.	.	.	.	16cc\	.	8B-\	.	.	.	.	.	16cc\	16cc\	.
.	.	.	.	.	.	16b-\JJ	.	.	.	.	.	.	16b-\JJ)	.	.	.	.	.	.	.	16b-\JJ)	16b-\JJ)	.
8d\	.	8B- 8F/	.	8b- 8d/	.	16a\LL	.	8d\	.	.	4Ra\	.	(16a\LL	.	8d\	.	.	.	.	.	(16a\LL	(16a\LL	.
.	.	.	.	.	.	16b-\	.	.	.	.	.	.	16b-\	.	.	.	.	.	.	.	16b-\	16b-\	.
8B-\J	.	8B-J 8F/	.	8b-J 8d/	.	16dd\	.	8B-\J	.	.	.	.	16dd\	.	8B-\J	.	.	.	.	.	16dd\	16dd\	.
*	*	*Xtremolo	*	*Xtremolo	*	*	*	*	*	*	*	*	*	*	*	*	*	*	*	*	*	*	*
.	.	.	.	.	.	16b-\JJ)	.	.	.	.	.	.	16b-\JJ)	.	.	.	.	.	.	.	16b-\JJ)	16b-\JJ)	.
!!LO:PB:g=original
=5	=5	=5	=5	=5	=5	=5	=5	=5	=5	=5	=5	=5	=5	=5	=5	=5	=5	=5	=5	=5	=5	=5	=5
*	*	*	*	*	*	*	*	*	*	*	*	*	*	*	*	*	*^	*	*^	*	*	*	*
8F\	.	8c 8F/	.	8a 8c/	.	8ff 8a\	.	8F\	.	8Ree/	8Ra\	.	8ffL 8a 8f\	.	8F\	.	8f/	8f\	.	8a 8c/	4ryy	.	8ff\	8ff\	.
8r	.	8r	.	8r	.	8r	.	8r	.	8r	8ryy	.	16ffL 16f\	.	8r	.	16f/LL	16f\LL	.	8r	.	.	8r	8r	.
.	.	.	.	.	.	.	.	.	.	.	.	.	16ffJJ 16f\	.	.	.	16f/JJ	16f\JJ	.	.	.	.	.	.	.
4r	.	4r	.	4r	.	8r	.	4r	.	4r	4ryy	.	8ff 8f\	.	4r	.	4f/	4f\	.	4r	4ryy	.	8r	8r	.
.	.	.	.	.	.	8ff\|	.	.	.	.	.	.	8f/	.	.	.	.	.	.	.	.	.	8ff\	8ff\|	.
4F\	.	4c 4F/	.	4a 4e-/	.	(16een\LL	.	4F\	.	4r	4ryy	.	(16en/LL	.	4F\	.	4f/	4f\	.	4a/	4e-\	.	(16een\LL	(16een\LL	.
.	.	.	.	.	.	16ff\	.	.	.	.	.	.	16f/	.	.	.	.	.	.	.	.	.	16ff\	16ff\	.
.	.	.	.	.	.	16gg\	.	.	.	.	.	.	16g/	.	.	.	.	.	.	.	.	.	16gg\	16gg\	.
.	.	.	.	.	.	16ff\JJ)	.	.	.	.	.	.	16f/JJ)	.	.	.	.	.	.	.	.	.	16ff\JJ)	16ff\JJ)	.
*	*	*	*	*	*	*	*	*	*	*	*	*	*	*	*	*	*v	*v	*	*	*	*	*	*	*
*	*	*	*	*	*	*	*	*	*	*	*	*	*	*	*	*	*	*	*v	*v	*	*	*	*
=6	=6	=6	=6	=6	=6	=6	=6	=6	=6	=6	=6	=6	=6	=6	=6	=6	=6	=6	=6	=6	=6	=6	=6
*	*	*tremolo	*	*tremolo	*	*	*	*	*	*	*	*	*	*	*	*	*	*	*	*	*	*	*
!	!	!	!	!	!	!	!	!LO:TX:t=P:problem:mixed beam	!	!	!	!	!	!	!	!	!	!	!	!	!	!	!
8BB-\L	.	8B-L 8F/	.	8b-L 8d/	.	(16bb-\LL	.	8BB-\L	.	2.ReeTT/	4Ra\	.	(16b-/LL	.	8BB-\L	.	2.f 2.B-/	.	2.b- 2.d/	.	(16bb-\LL	(16bb-\LL	.
.	.	.	.	.	.	16aa\	.	.	.	.	.	.	16a/	.	.	.	.	.	.	.	16aa\	16aa\	.
8D\	.	8B- 8F/	.	8b- 8d/	.	16gg\	.	8D\	.	.	.	.	16g/	.	8D\	.	.	.	.	.	16gg\	16gg\	.
.	.	.	.	.	.	16ff\JJ	.	.	.	.	.	.	16f/JJ	.	.	.	.	.	.	.	16ff\JJ	16ff\JJ	.
8F\	.	8B- 8F/	.	8b- 8d/	.	16ee-X\LL	.	8F\	.	.	4Ra\	.	16ee-\LL	.	8F\	.	.	.	.	.	16ee-\LL	16ee-\LL	.
.	.	.	.	.	.	16dd\	.	.	.	.	.	.	16dd\	.	.	.	.	.	.	.	16dd\	16dd\	.
8B-\	.	8B- 8F/	.	8b- 8d/	.	16cc\	.	8BB-/	.	.	.	.	16cc\	.	8B-\	.	.	.	.	.	16cc\	16cc\	.
.	.	.	.	.	.	16b-\JJ)	.	.	.	.	.	.	16b-\JJ)	.	.	.	.	.	.	.	16b-\JJ)	16b-\JJ)	.
8d\	.	8B- 8F/	.	8b- 8d/	.	(16a\LL	.	8D/	.	.	4Ra\	.	(16a\LL	.	8d\	.	.	.	.	.	(16a\LL	(16aa\LL	.
.	.	.	.	.	.	16b-\	.	.	.	.	.	.	16b-\	.	.	.	.	.	.	.	16b-\	16bb-\	.
8B-\J	.	8B-J 8F/	.	8b-J 8d/	.	16dd\	.	8BB-/J	.	.	.	.	16dd\	.	8B-\J	.	.	.	.	.	16dd\	16ddd\	.
.	.	.	.	.	.	16b-\JJ)	.	.	.	.	.	.	16b-\JJ)	.	.	.	.	.	.	.	16b-\JJ)	16bb-\JJ)	.
*	*	*Xtremolo	*	*Xtremolo	*	*	*	*	*	*	*	*	*	*	*	*	*	*	*	*	*	*	*
=7	=7	=7	=7	=7	=7	=7	=7	=7	=7	=7	=7	=7	=7	=7	=7	=7	=7	=7	=7	=7	=7	=7	=7
*	*	*	*	*	*	*	*	*	*	*	*	*	*	*	*	*	*^	*	*	*	*	*	*
8F\	.	8c 8F/	.	8a 8c/	.	8ff 8a\	.	8F\L	.	8Ree/	8Ra\	.	8ff 8a\	.	8F\	.	8f/	8f\	.	8a 8c/	.	8ff\	8fff\	.
8r	.	8r	.	8r	.	8r	.	16F\L	.	8r	8ryy	.	16ffLL 16f\	.	8r	.	16f\LL	8ryy	.	8r	.	8r	8r	.
.	.	.	.	.	.	.	.	16F\JJ	.	.	.	.	16ffJJ 16f\	.	.	.	16f\JJ	.	.	.	.	.	.	.
8r	.	8r	.	8r	.	8r	.	8F\	.	8r	8ryy	.	8ffL 8f\	.	8r	.	8f\L	2ryy	.	8r	.	8r	8r	.
*	*	*	*	*	*	*	*	*	*	*tremolo	*	*	*	*	*	*	*	*	*	*	*	*	*	*
!	!	!	!	!	!	!	!	!LO:TX:t=P:problem:mixed beam	!	!	!	!	!	!	!	!	!	!	!	!	!	!	!	!
8F\L	.	8f\L	.	8aL 8f/	.	8ccL 8f\	.	8F\L	.	32Ree/LLL	8Ra\L	.	8cc 8a\	.	8F\L	.	8f\	.	.	8ccL 8a'\	.	8aa\L	8ccc'\L	.
.	.	.	.	.	.	.	.	.	.	32Ree/	.	.	.	.	.	.	.	.	.	.	.	.	.	.
.	.	.	.	.	.	.	.	.	.	32Ree/	.	.	.	.	.	.	.	.	.	.	.	.	.	.
.	.	.	.	.	.	.	.	.	.	32Ree/JJ	.	.	.	.	.	.	.	.	.	.	.	.	.	.
*	*	*	*	*	*	*	*	*	*	*Xtremolo	*	*	*	*	*	*	*	*	*	*	*	*	*	*
8B-\	.	8B-\	.	8b- 8f/	.	8dd 8f\	.	8BB-/	.	8Ree/	8Ra\	.	8dd 8b-\	.	8B-\	.	8f 8B-\	.	.	8dd 8b-'\	.	8bb-\	8ddd'\	.
8D\J	.	8d\J	.	8b-J 8f/	.	8ffJ 8b-\	.	8D/J	.	8Ree/J	8Ra\J	.	8ffJ 8b-\	.	8D\J	.	8fJ 8B-\	.	.	8ffJ 8b-'\	.	8bb-\J	8fff'\J	.
*	*	*	*	*	*	*	*	*	*	*	*	*	*	*	*	*	*v	*v	*	*	*	*	*	*
=8	=8	=8	=8	=8	=8	=8	=8	=8	=8	=8	=8	=8	=8	=8	=8	=8	=8	=8	=8	=8	=8	=8	=8
8F\	.	8f\	.	8a 8f/	.	8cc 8f/	.	8F\L	.	8Ree/	8Ra\	.	8ccL 8a\	.	8F\	.	8f\L	.	8cc 8a'\	.	8aa\	8ccc\	.
8r	.	8r	.	8r	.	8r	.	16F\L	.	8r	8r	.	16ffL 16f\	.	8r	.	16f\L	.	8r	.	8r	8r	.
.	.	.	.	.	.	.	.	16F\JJ	.	.	.	.	16ffJJ 16f\	.	.	.	16f\JJ	.	.	.	.	.	.
8r	.	8r	.	8r	.	8r	.	8F\	.	8r	8r	.	8ffL 8f\	.	8r	.	8f\L	.	8r	.	8r	8r	.
*	*	*	*	*	*	*	*	*	*	*tremolo	*	*	*	*	*	*	*	*	*	*	*	*	*
!	!	!	!	!	!	!	!	!LO:TX:t=P:problem:mixed beam	!	!	!	!	!	!	!	!	!	!	!	!	!	!	!
8F\L	.	8f\L	.	8aL 8f/	.	8ccL 8f/	.	8F\L	.	32Ree/LLL	8Ra\L	.	16ccL 16a\	.	8F\L	.	8f\	.	8ccL 8a'\	.	8aa\L	8ccc'\L	.
.	.	.	.	.	.	.	.	.	.	32Ree/	.	.	.	.	.	.	.	.	.	.	.	.	.
.	.	.	.	.	.	.	.	.	.	32Ree/	.	.	16ccJJ 16a\	.	.	.	.	.	.	.	.	.	.
.	.	.	.	.	.	.	.	.	.	32Ree/JJ	.	.	.	.	.	.	.	.	.	.	.	.	.
*	*	*	*	*	*	*	*	*	*	*Xtremolo	*	*	*	*	*	*	*	*	*	*	*	*	*
8B-\	.	8B-\	.	8b- 8f/	.	8dd 8f/	.	8BB-/	.	8Ree/	8Ra\	.	8ddL 8b-\	.	8B-\	.	8f 8B-\	.	8dd 8b-'\	.	8bb-\	8ddd'\	.
8D\J	.	8d\J	.	8b-J 8f/	.	8ffJ 8b-/	.	8D/J	.	8Ree/J	8Ra\J	.	8ffJ 8b-\	.	8D\J	.	8fJ 8B-\	.	8ffJ 8b-'\	.	8bb-\J	8fff'\J	.
!!LO:PB:g=original
=9	=9	=9	=9	=9	=9	=9	=9	=9	=9	=9	=9	=9	=9	=9	=9	=9	=9	=9	=9	=9	=9	=9	=9
*	*	*	*	*	*	*	*	*	*	*	*	*	*	*	*	*	*^	*	*	*	*	*	*
8F\	.	8f\	.	8a 8f/	.	8cc|L 8f\	.	8F\	.	8Ree/	8Ra\	.	8cc 8a\	.	8F\	.	8f/	8f\	.	8cc 8a\	.	8aa\L|	8ccc\L	.
8r	.	8r	.	8r	.	(16ff\L	.	8r	.	8r	8ryy	.	8r	.	8r	.	8r	8ryy	.	8r	.	(16ff\L	(16ff\L	.
.	.	.	.	.	.	16een\JJ	.	.	.	.	.	.	.	.	.	.	.	.	.	.	.	16een\JJ	16een\JJ	.
4r	.	4r	.	4r	.	16ff\LL	.	4r	.	4r	4ryy	.	4r	.	4r	.	4r	4ryy	.	4r	.	16ff\LL	16ff\LL	.
.	.	.	.	.	.	16ee\	.	.	.	.	.	.	.	.	.	.	.	.	.	.	.	16ee\	16ee\	.
.	.	.	.	.	.	16ff\	.	.	.	.	.	.	.	.	.	.	.	.	.	.	.	16ff\	16ff\	.
.	.	.	.	.	.	16ee\JJ	.	.	.	.	.	.	.	.	.	.	.	.	.	.	.	16ee\JJ	16ee\JJ	.
4r	.	4r	.	4r	.	16ff\LL	.	4r	.	4r	4ryy	.	4r	.	4r	.	4r	4ryy	.	4r	.	16ff\LL	16ff\LL	.
.	.	.	.	.	.	16ee\	.	.	.	.	.	.	.	.	.	.	.	.	.	.	.	16ee\	16ee\	.
.	.	.	.	.	.	16ff\	.	.	.	.	.	.	.	.	.	.	.	.	.	.	.	16ff\	16ff\)	.
!	!	!	!	!	!	!LO:TX:a:t=[segno]:problem:na kresce taktowej	!	!	!	!	!	!	!	!	!	!	!	!	!	!	!	!	!LO:TX:a:t=[segno]:problem:na kresce taktowej	!
.	.	.	.	.	.	16ee-X\JJ)	.	.	.	.	.	.	.	.	.	.	.	.	.	.	.	16ee-X\JJ)	16ee-X\JJ	.
*	*	*	*	*	*	*	*	*	*	*v	*v	*	*	*	*	*	*v	*v	*	*	*	*	*	*
=10||	=10||	=10||	=10||	=10||	=10||	=10||	=10||	=10||	=10||	=10||	=10||	=10||	=10||	=10||	=10||	=10||	=10||	=10||	=10||	=10||	=10||	=10||
*>B	*>B	*>B	*>B	*>B	*>B	*>B	*>B	*>B	*>B	*>B	*>B	*>B	*>B	*>B	*>B	*>B	*>B	*>B	*>B	*>B	*>B	*>B
*	*	*	*	*	*	*	*	*	*	*	*	*	*	*	*	*	*	*^	*	*	*	*
!	!LO:DY:rj	!	!	!	!	!	!	!	!	!	!	!	!	!	!	!	!	!	!	!	!	!	!
8BB-/	f	8r	.	8r	.	8dd\	.	2.r	.	2.r	.	2.r	.	8r	.	2.r	.	8r	2.re	.	8dd\	8dd\	.
!	!	!	!LO:DY:rj	!	!LO:DY:rj	!	!LO:DY:rj	!	!	!	!	!	!	!	!	!	!	!	!	!	!	!	!
8r	p	8f 8B-\	p	8d 8B-/	p	8f/	p	.	.	.	.	.	.	4d^<\	.	.	.	4dd^/	.	.	8r	8r	.
8BB-/	.	8r	.	8r	.	8r	.	.	.	.	.	.	.	.	.	.	.	.	.	.	4r	4r	.
8r	.	8f 8B-\	.	8d 8B-/	.	8f/	.	.	.	.	.	.	.	(16e-\LL	.	.	.	(16ee-/LL	.	.	.	.	.
.	.	.	.	.	.	.	.	.	.	.	.	.	.	16d\JJ	.	.	.	16dd/JJ	.	.	.	.	.
8BB-/	.	8r	.	8r	.	8r	.	.	.	.	.	.	.	16c\LL	.	.	.	16cc/LL	.	.	4r	4r	.
.	.	.	.	.	.	.	.	.	.	.	.	.	.	16B-\	.	.	.	16b-/	.	.	.	.	.
8r	.	8f 8B-\	.	8d 8B-/	.	8f/	.	.	.	.	.	.	.	16A\	.	.	.	16a/	.	.	.	.	.
.	.	.	.	.	.	.	.	.	.	.	.	.	.	16B-\JJ)	.	.	.	16b-/JJ)	.	.	.	.	.
=11	=11	=11	=11	=11	=11	=11	=11	=11	=11	=11	=11	=11	=11	=11	=11	=11	=11	=11	=11	=11	=11	=11	=11
8E-\	.	8r	.	8r	.	8r	.	2.r	.	2.r	.	2.r	.	(16A\LL	.	2.r	.	(16a/LL	2.re	.	2.r	2.r	.
.	.	.	.	.	.	.	.	.	.	.	.	.	.	16G\	.	.	.	16g/	.	.	.	.	.
8r	.	8e- 8c\	.	8e- 8c/	.	8g/	.	.	.	.	.	.	.	16F#X\	.	.	.	16f#X/	.	.	.	.	.
.	.	.	.	.	.	.	.	.	.	.	.	.	.	16G\JJ	.	.	.	16g/JJ	.	.	.	.	.
*rep	*	*rep	*	*rep	*	*rep	*	*	*	*	*	*	*	*	*	*	*	*	*	*	*	*	*
8E-\	.	8r	.	8r	.	8r	.	.	.	.	.	.	.	8g\L)|	.	.	.	8gg/L)	.	.	.	.	.
8r	.	8e- 8c\	.	8e- 8c/	.	8g/	.	.	.	.	.	.	.	(8e-\J|	.	.	.	(8ee-/	.	.	.	.	.
*Xrep	*	*Xrep	*	*Xrep	*	*Xrep	*	*	*	*	*	*	*	*	*	*	*	*	*	*	*	*	*
*rep	*	*rep	*	*rep	*	*rep	*	*	*	*	*	*	*	*	*	*	*	*	*	*	*	*	*
8E-\	.	8r	.	8r	.	8r	.	.	.	.	.	.	.	8c\L)	.	.	.	8cc/)	.	.	.	.	.
8r	.	8e- 8c\	.	8e- 8c/	.	8g/	.	.	.	.	.	.	.	(8B-\J|	.	.	.	(8b-'/J	.	.	.	.	.
*Xrep	*	*Xrep	*	*Xrep	*	*Xrep	*	*	*	*	*	*	*	*	*	*	*	*	*	*	*	*	*
=12	=12	=12	=12	=12	=12	=12	=12	=12	=12	=12	=12	=12	=12	=12	=12	=12	=12	=12	=12	=12	=12	=12	=12
*	*	*	*	*	*	*	*	*	*	*	*	*^	*	*	*	*^	*	*	*	*	*	*	*
*	*	*	*	*	*	*	*	*	*	*	*	*	*	*	*	*	*	*2\right	*	*	*2\right	*	*	*	*
!	!	!	!	!	!	!	!	!	!	!	!	!	!	!	!	!	!	!	!LO:DY:rj	!	!	!	!	!	!
8F\	.	8r	.	8r	.	8r	.	2.r	.	2.r	.	8r	2.rd	.	8A\)	p	2.f/	2.e-\	p	8a/)	2.c\	.	8r	8r	.
8r	.	8c 8F/	.	8e- 8c/	.	8a/	.	.	.	.	.	4a^</|	.	.	8F\L	.	.	.	.	8r	.	.	4aa^<\|	4aa^<\|	.
*rep	*	*rep	*	*rep	*	*rep	*	*	*	*	*	*	*	*	*	*	*	*	*	*	*	*	*	*	*
8F\	.	8r	.	8r	.	8r	.	.	.	.	.	.	.	.	8A\	.	.	.	.	4r	.	.	.	.	.
8r	.	8c 8F/	.	8e- 8c/	.	8a/	.	.	.	.	.	(16cc/LL	.	.	8F\	.	.	.	.	.	.	.	(16ccc\LL	(16ccc\LL	.
.	.	.	.	.	.	.	.	.	.	.	.	16b-/JJ	.	.	.	.	.	.	.	.	.	.	16bb-\JJ	16bb-\JJ	.
*Xrep	*	*Xrep	*	*Xrep	*	*Xrep	*	*	*	*	*	*	*	*	*	*	*	*	*	*	*	*	*	*	*
*rep	*	*rep	*	*rep	*	*rep	*	*	*	*	*	*	*	*	*	*	*	*	*	*	*	*	*	*	*
8F\	.	8r	.	8r	.	8r	.	.	.	.	.	16a/LL	.	.	8A\	.	.	.	.	4r	.	.	16aa\LL	16aa\LL	.
.	.	.	.	.	.	.	.	.	.	.	.	16g/	.	.	.	.	.	.	.	.	.	.	16gg\	16gg\	.
8r	.	8c 8F/	.	8e- 8c/	.	8a/	.	.	.	.	.	16f/	.	.	8F\J	.	.	.	.	.	.	.	16ff\	16ff\	.
.	.	.	.	.	.	.	.	.	.	.	.	16e-/JJ)	.	.	.	.	.	.	.	.	.	.	16ee-\JJ)	16ee-\JJ)	.
*Xrep	*	*Xrep	*	*Xrep	*	*Xrep	*	*	*	*	*	*	*	*	*	*	*	*	*	*	*	*	*	*	*
*	*	*	*	*	*	*	*	*	*	*	*	*v	*v	*	*	*	*v	*v	*	*	*	*	*	*	*
!!LO:PB:g=original
=13	=13	=13	=13	=13	=13	=13	=13	=13	=13	=13	=13	=13	=13	=13	=13	=13	=13	=13	=13	=13	=13	=13	=13
8BB-/	.	8r	.	8r	.	8r	.	2.r	.	2.r	.	(16e-/LL	.	8B-\L	.	4.f 4.B-/	.	4rdd	4.d\	.	(16ee-\LL	(16ee-\LL	.
.	.	.	.	.	.	.	.	.	.	.	.	16d/	.	.	.	.	.	.	.	.	16dd\	16dd\	.
8r	.	8B- 8F/	.	8d 8B-/	.	8b-/L	.	.	.	.	.	16c#X/	.	8F\	.	.	.	.	.	.	16cc#X\	16cc#X\	.
.	.	.	.	.	.	.	.	.	.	.	.	16d/JJ)	.	.	.	.	.	.	.	.	16dd\JJ)	16dd\JJ)	.
*	*	*rep	*	*rep	*	*	*	*	*	*	*	*	*	*	*	*	*	*	*	*	*	*	*
8D/	.	8r	.	8r	.	8b-/J	.	.	.	.	.	8B-/	.	8B-\J	.	.	.	8r	.	.	8b-\	8b-\	.
8r	.	8B- 8F/	.	8d 8B-/	.	8f/L	.	.	.	.	.	8f'/L	.	8r	.	8r	.	8f'/L	4.ryy	.	8f/L	8f/L	.
*	*	*Xrep	*	*Xrep	*	*	*	*	*	*	*	*	*	*	*	*	*	*	*	*	*	*	*
*	*	*rep	*	*rep	*	*	*	*	*	*	*	*	*	*	*	*	*	*	*	*	*	*	*
8BB-/	.	8r	.	8r	.	8b-/	.	.	.	.	.	8B-'/	.	4r	.	4r	.	8B-'/	.	.	8b-/	8b-/	.
8r	.	8B- 8F/	.	8d 8B-/	.	8dd/J	.	.	.	.	.	8d'/J	.	.	.	.	.	8d'/J	.	.	8dd/J	8dd/J	.
*	*	*Xrep	*	*Xrep	*	*	*	*	*	*	*	*	*	*	*	*	*	*	*	*	*	*	*
*	*	*	*	*	*	*	*	*	*	*	*	*	*	*	*	*	*	*v	*v	*	*	*	*
=14	=14	=14	=14	=14	=14	=14	=14	=14	=14	=14	=14	=14	=14	=14	=14	=14	=14	=14	=14	=14	=14	=14
*	*	*	*	*	*	*	*	*	*	*^	*	*	*	*	*	*	*	*	*	*	*	*
.	.	.	.	.	.	(8qeen/	.	.	.	.	.	.	8qen/	.	.	.	.	.	(8qeX/	.	(y8qeen/yy	(8qeen/	.
!	!LO:DY:rj	!	!	!	!LO:DY:rj	!	!	!	!	!	!	!LO:DY:rj	!	!	!	!	!	!LO:DY:rj	!	!	!LO:TX:a:t=Col Vo. Io.	!	!
8D/	f	8r	.	8r	f	8ff\)	.	8D/	.	8rA	4Ra\	f	8f/	.	8r	.	8r	f	8f/)	.	8ff\)yy	8ff\)	.
8r	.	8d 8F/	.	8f 8B-/	.	4ff\|	.	8r	.	8ReeT/	.	.	4f^>/	.	8d\	.	8f 8B-/	.	4f^/	.	4ff\yy|	4ff^\	.
*	*	*rep	*	*rep	*	*	*	*	*	*rep	*	*	*	*	*rep	*	*rep	*	*	*	*	*	*
8BB-/	.	8r	.	8r	.	.	.	8BB-/	.	8r	4Ra\	.	.	.	8r	.	8r	.	.	.	.	.	.
8r	.	8d 8F/	.	8f 8B-/	.	(16bb-\LL	.	8r	.	8ReeT/	.	.	(>16b-/LL	.	8d\	.	8f 8B-/	.	(>16b-/LL	.	(y16bb-\LLyy	(16bb-\LL	.
.	.	.	.	.	.	16aa\JJ	.	.	.	.	.	.	16a/JJ	.	.	.	.	.	16a/JJ	.	16aa\JJyy	16aa\JJ	.
*	*	*Xrep	*	*Xrep	*	*	*	*	*	*Xrep	*	*	*	*	*Xrep	*	*Xrep	*	*	*	*	*	*
*	*	*rep	*	*rep	*	*	*	*	*	*rep	*	*	*	*	*rep	*	*rep	*	*	*	*	*	*
8D\	.	8r	.	8r	.	16gg\LL	.	8D/	.	8r	4Ra\	.	16g/LL	.	8r	.	8r	.	16g/LL	.	16gg\LLyy	16gg\LL	.
.	.	.	.	.	.	16ff\	.	.	.	.	.	.	16f/	.	.	.	.	.	16f/	.	16ff\yy	16ff\	.
!	!	!	!	!	!	!LO:TX:t=P:problem:♭ above	!	!	!	!	!	!	!	!	!	!	!	!	!	!	!	!	!
8r	.	8d 8F/	.	8f 8B-/	.	16ee-X\	.	8r	.	8ReeT/	.	.	16e/	.	8d\	.	8f 8B-/	.	16e-/	.	16ee-X\yy	16ee-X\	.
.	.	.	.	.	.	16dd\JJ)	.	.	.	.	.	.	16d/JJ)	.	.	.	.	.	16d/JJ)	.	16dd\JJ)yy	16dd\JJ)	.
*	*	*Xrep	*	*Xrep	*	*	*	*	*	*Xrep	*	*	*	*	*Xrep	*	*Xrep	*	*	*	*	*	*
=15	=15	=15	=15	=15	=15	=15	=15	=15	=15	=15	=15	=15	=15	=15	=15	=15	=15	=15	=15	=15	=15	=15	=15
*	*	*	*	*	*	*	*	*	*	*	*	*	*	*	*	*	*^	*	*	*	*	*	*
!	!	!	!	!	!	!	!	!	!	!	!	!	!	!	!	!	!	!	!	!	!	!	!LO:TX:a:t=Col Vo. Io.	!
4E-\	.	8r	.	8r	.	(16dd\LL	.	4E-\	.	8rA	4Ra\	.	(16e-/LL	.	8r	.	8r	8ryy	.	(16d/LL	.	(y16dd\LLyy	(y16dd\LLyy	.
.	.	.	.	.	.	16cc\	.	.	.	.	.	.	16d/	.	.	.	.	.	.	16c/	.	16cc\yy	16cc\yy	.
.	.	8e- 8G/	.	8c/	.	16bn\	.	.	.	32Ree/LLL	.	.	16c#X/	.	8c\	.	8g/	8e-\	.	16BX/	.	16bn\yy	16bn\yy	.
.	.	.	.	.	.	.	.	.	.	32Ree/	.	.	.	.	.	.	.	.	.	.	.	.	.	.
.	.	.	.	.	.	16cc\JJ)	.	.	.	32Ree/	.	.	16d/JJ)	.	.	.	.	.	.	16c/JJ)	.	16cc\JJ)yy	16cc\JJ)yy	.
.	.	.	.	.	.	.	.	.	.	32Ree/JJJ	.	.	.	.	.	.	.	.	.	.	.	.	.	.
*	*	*tremolo	*	*tremolo	*	*	*	*	*	*	*	*	*	*	*2\right	*	*	*	*	*	*	*	*	*
4C/	.	8e-L 8G/	.	8c/L	.	(16ff\LL	.	4C/	.	4Ree/	4rGG	.	(16f/LL	.	2c\	.	2g/	2e-\	.	(16f/LL	.	(y16ff\LLyy	(y16ff\LLyy	.
.	.	.	.	.	.	16ee-\	.	.	.	.	.	.	16e-/	.	.	.	.	.	.	16e-/	.	16ee-\yy	16ee-\yy	.
.	.	8e- 8G/	.	8c/	.	16dd\	.	.	.	.	.	.	16d/	.	.	.	.	.	.	16d/	.	16dd\yy	16dd\yy	.
.	.	.	.	.	.	16ee-\JJ)	.	.	.	.	.	.	16e-/JJ)	.	.	.	.	.	.	16e-/JJ)	.	16ee-\JJ)yy	16ee-\JJ)yy	.
4E-\	.	8e- 8G/	.	8c/	.	(16aa\LL	.	4E-\	.	4rA	4rFF	.	(16a/LL	.	.	.	.	.	.	(16a/LL	.	(y16aa\LLyy	(y16aa\LLyy	.
.	.	.	.	.	.	16gg\	.	.	.	.	.	.	16g/	.	.	.	.	.	.	16g/	.	16gg\yy	16gg\yy	.
.	.	8e-J 8G/	.	8c/J	.	16ff#X\	.	.	.	.	.	.	16f#X/	.	.	.	.	.	.	16f#X/	.	16ff#X\yy	16ff#X\yy	.
.	.	.	.	.	.	16gg\JJ)	.	.	.	.	.	.	16g/JJ)	.	.	.	.	.	.	16g/JJ)	.	16gg\JJ)yy	16gg\JJ)yy	.
*	*	*Xtremolo	*	*Xtremolo	*	*	*	*	*	*	*	*	*	*	*	*	*	*	*	*	*	*	*	*
*	*	*	*	*	*	*	*	*	*	*	*	*	*	*	*	*	*v	*v	*	*	*	*	*	*
!!LO:PB:g=original
=16	=16	=16	=16	=16	=16	=16	=16	=16	=16	=16	=16	=16	=16	=16	=16	=16	=16	=16	=16	=16	=16	=16	=16
*	*	*	*	*	*	*	*	*	*	*	*	*	*^	*	*	*	*	*	*	*	*	*	*
.	.	.	.	.	.	.	.	.	.	16qqRee/LL	.	.	.	.	.	.	.	.	.	.	.	.	.	.
.	.	.	.	.	.	.	.	.	.	16qqRee/JJ	.	.	.	.	.	.	.	.	.	.	.	.	.	.
4F\	.	8r	.	8r	.	16ff\LL|	.	4F\	.	8Ree/	8Ra\	.	16f/	16f\	.	16d\	.	16f 16B-/	.	16f|>/LL	.	16ff\	16ff\LLyy	.
.	.	.	.	.	.	(16eeen\	.	.	.	.	.	.	16r	16ryy	.	8.r	.	8.r	.	(>16eeX/	.	16r	(y16eeen\yy	.
.	.	8d 8F/	.	8d 8B-/	.	16fff\)	.	.	.	8r	8ryy	.	8r	8ryy	.	.	.	.	.	16ff/)	.	8r	16fff\)yy	.
.	.	.	.	.	.	(16ccc#X\JJ	.	.	.	.	.	.	.	.	.	.	.	.	.	(>16cc#X/JJ	.	.	(y16ccc#X\JJyy	.
*	*	*tremolo	*	*tremolo	*	*	*	*	*	*	*	*	*	*	*	*	*	*	*	*	*	*	*	*
4r	.	8dL 8F/	.	8dL 8B-/	.	16ddd\LL)	.	4r	.	4r	4ryy	.	4r	4ryy	.	2d\	.	2f 2B-/	.	16dd/LL)	.	16r	16ddd\LL)yy	.
.	.	.	.	.	.	(16aa\	.	.	.	.	.	.	.	.	.	.	.	.	.	(>16a/	.	(16aa\LL	(y16aa\yy	.
.	.	8d 8F/	.	8d 8B-/	.	16bb-\)	.	.	.	.	.	.	.	.	.	.	.	.	.	16b-/)	.	16bb-\)	16bb-\)yy	.
.	.	.	.	.	.	(16een\JJ	.	.	.	.	.	.	.	.	.	.	.	.	.	(>16eX/JJ	.	(16een\JJ	(y16een\JJyy	.
4F\	.	8d 8F/	.	8d 8B-/	.	16ff\LL)	.	4F\	.	4r	4ryy	.	4r	4ryy	.	.	.	.	.	16f/LL)	.	16ff\LL)	16ff\LL)yy	.
.	.	.	.	.	.	(16cc#X\	.	.	.	.	.	.	.	.	.	.	.	.	.	(>16c#X/	.	(16cc#X\	(y16cc#X\yy	.
.	.	8dJ 8F/	.	8dJ 8B-/	.	16dd\)	.	.	.	.	.	.	.	.	.	.	.	.	.	16d/)	.	16dd\)	16dd\)yy	.
.	.	.	.	.	.	(16b-\JJ	.	.	.	.	.	.	.	.	.	.	.	.	.	(>16B-/JJ	.	(16b-\JJ	(y16b-\JJyy	.
*	*	*Xtremolo	*	*Xtremolo	*	*	*	*	*	*	*	*	*	*	*	*	*	*	*	*	*	*	*	*
*	*	*	*	*	*	*	*	*	*	*	*	*	*v	*v	*	*	*	*	*	*	*	*	*	*
=17	=17	=17	=17	=17	=17	=17	=17	=17	=17	=17	=17	=17	=17	=17	=17	=17	=17	=17	=17	=17	=17	=17	=17
*	*	*	*	*	*	*	*	*	*	*	*	*	*	*	*	*	*^	*	*	*	*	*	*
!LO:TX:t=P:problem:mixed beam	!	!	!	!	!	!	!	!	!	!	!	!	!	!	!	!	!	!	!	!	!	!	!	!
8F\L	.	8r	.	8r	.	16a\LL)	.	8F\	.	8Ree/	8Ra\	.	8.r	.	8c\L	.	8f/L	8e-\L	.	16A-X/LL)	.	16a\LL)	16a\LL)yy	.
.	.	.	.	.	.	32r	.	.	.	.	.	.	.	.	.	.	.	.	.	32r	.	32r	32ryy	.
.	.	.	.	.	.	32gg\K	.	.	.	.	.	.	.	.	.	.	.	.	.	(32g/K	.	(32gg\K	32gg\Kyy	.
!	!	!	!	!	!	!	!	!	!	!	!	!	!	!	!LO:N:vis=32	!	!	!	!	!	!	!	!	!
8FF/J	.	8c 8F/	.	8e- 8c/	.	16ff\	.	8r	.	8r	8r	.	.	.	16r	.	16r	16r	.	16f/)	.	16ff\)	16ff\yy	.
!	!	!	!	!	!	!	!	!	!	!	!	!	!LO:N:vis=32	!	!	!	!	!	!	!	!	!	!	!
.	.	.	.	.	.	32r	.	.	.	.	.	.	16a|> 16c/	.	16c\Jk	.	16f/Jk	16e-\Jk	.	32r	.	32r	32ryy	.
.	.	.	.	.	.	32a\JJk	.	.	.	.	.	.	.	.	.	.	.	.	.	32A-/JJk	.	32a\JJk|	32a\JJkyy	.
8r	.	(4A/	.	(4e- 4c/	.	(4cc\	.	8r	.	4ReeT/	8rAA	.	(4cc (4e-/	.	(4A\	.	[4f/	4e-\	.	(>4c/	.	(4cc\	(y4cc\yy	.
8FF/L	.	.	.	.	.	.	.	8FF/L	.	.	8Ra\	.	.	.	.	.	.	.	.	.	.	.	.	.
8BB-/J	.	8B-/)	.	8d/)	.	8b-\)	.	8BB-/J	.	8Ree/	8Ra\	.	8b- 8d/))	.	8B-\)	.	8f] 8B-/	4ryy	.	8B-/)	.	8b-\)	8b-\)yy	.
!	!	!	!	!	!	!LO:TX:t=P:problem:fermata na kresce taktowej	!	!	!	!	!	!	!	!	!	!	!	!	!	!	!	!	!LO:TX:t=P:problem:fermata na kresce taktowej	!
8r	.	8r	.	8r	.	8r;	.	8r	.	8ryy	8ryy	.	8r	.	8r	.	8ryy	.	.	8r	.	8r	8r;yy	.
*	*	*	*	*	*	*	*	*	*	*v	*v	*	*	*	*	*	*v	*v	*	*	*	*	*	*
=18:|!	=18:|!	=18:|!	=18:|!	=18:|!	=18:|!	=18:|!	=18:|!	=18:|!	=18:|!	=18:|!	=18:|!	=18:|!	=18:|!	=18:|!	=18:|!	=18:|!	=18:|!	=18:|!	=18:|!	=18:|!	=18:|!	=18:|!
*>C	*>C	*>C	*>C	*>C	*>C	*>C	*>C	*>C	*>C	*>C	*>C	*>C	*>C	*>C	*>C	*>C	*>C	*>C	*>C	*>C	*>C	*>C
!	!	!	!	!	!	!	!LO:DY:rj	!	!	!	!	!	!	!	!	!	!	!	!	!	!	!
4F#X\	.	8r	.	8r	.	8.dd\L|	p	2.ryy	.	2.ryy	.	2.ryy	.	2.ryy	.	2.ryy	.	2.ryy	.	2.ryy	2.ryy	.
.	.	8d\	.	8a 8c/	.	.	.	.	.	.	.	.	.	.	.	.	.	.	.	.	.	.
.	.	.	.	.	.	(16ee-\Jk	.	.	.	.	.	.	.	.	.	.	.	.	.	.	.	.
*	*	*2\right	*	*	*	*	*	*	*	*	*	*	*	*	*	*	*	*	*	*	*	*
*	*	*tremolo	*	*tremolo	*	*	*	*	*	*	*	*	*	*	*	*	*	*	*	*	*	*
4r	.	8d\L	.	8aL 8c/	.	16dd\LL	.	.	.	.	.	.	.	.	.	.	.	.	.	.	.	.
.	.	.	.	.	.	16ee-\	.	.	.	.	.	.	.	.	.	.	.	.	.	.	.	.
.	.	8d\	.	8a 8c/	.	16dd\	.	.	.	.	.	.	.	.	.	.	.	.	.	.	.	.
.	.	.	.	.	.	16ee-\JJ	.	.	.	.	.	.	.	.	.	.	.	.	.	.	.	.
4F#\	.	8d\	.	8a 8c/	.	16dd\LL	.	.	.	.	.	.	.	.	.	.	.	.	.	.	.	.
.	.	.	.	.	.	16cc\	.	.	.	.	.	.	.	.	.	.	.	.	.	.	.	.
.	.	8d\J	.	8aJ 8c/	.	16b-\	.	.	.	.	.	.	.	.	.	.	.	.	.	.	.	.
*	*	*Xtremolo	*	*Xtremolo	*	*	*	*	*	*	*	*	*	*	*	*	*	*	*	*	*	*
.	.	.	.	.	.	16a\JJ)	.	.	.	.	.	.	.	.	.	.	.	.	.	.	.	.
!!LO:PB:g=original
=19	=19	=19	=19	=19	=19	=19	=19	=19	=19	=19	=19	=19	=19	=19	=19	=19	=19	=19	=19	=19	=19	=19
*	*	*	*	*	*	*	*	*	*	*	*	*	*	*	*	*	*	*^	*	*	*	*
4G\	.	8r	.	8r	.	(16cc\LL	.	2.r	.	2.r	.	2.r	.	2.r	.	2.r	.	4r	2.re	.	4r	4r	.
.	.	.	.	.	.	16b-\	.	.	.	.	.	.	.	.	.	.	.	.	.	.	.	.	.
.	.	8d 8G/	.	8g 8B-/	.	16a\	.	.	.	.	.	.	.	.	.	.	.	.	.	.	.	.	.
.	.	.	.	.	.	16b-\JJ)	.	.	.	.	.	.	.	.	.	.	.	.	.	.	.	.	.
*	*	*tremolo	*	*tremolo	*	*	*	*	*	*	*	*	*	*	*	*	*	*	*	*	*	*	*
4r	.	8dL 8G/	.	8gL 8B-/	.	8a/	.	.	.	.	.	.	.	.	.	.	.	8.r	.	.	8.r	8.r	.
.	.	8d 8G/	.	8g 8B-/	.	8r	.	.	.	.	.	.	.	.	.	.	.	.	.	.	.	.	.
.	.	.	.	.	.	.	.	.	.	.	.	.	.	.	.	.	.	(<32g/LLL	.	.	(32gg\LLL	(32gg\LLL	.
.	.	.	.	.	.	.	.	.	.	.	.	.	.	.	.	.	.	32a/JJ	.	.	32aa\JJ	32aa\JJ	.
!	!	!	!	!	!	!	!	!	!	!	!	!	!	!	!	!	!	!LO:N:vis=8.	!	!	!	!	!
4r	.	8d 8G/	.	8g 8B-/	.	4r	.	.	.	.	.	.	.	.	.	.	.	8b-/J)	.	.	8bb-\J)	8bb-\J)	.
.	.	8dJ 8G/	.	8gJ 8B-/	.	.	.	.	.	.	.	.	.	.	.	.	.	8r	.	.	8r	8r	.
*	*	*Xtremolo	*	*Xtremolo	*	*	*	*	*	*	*	*	*	*	*	*	*	*	*	*	*	*	*
*	*	*	*	*	*	*	*	*	*	*	*	*	*	*	*	*	*	*v	*v	*	*	*	*
=20	=20	=20	=20	=20	=20	=20	=20	=20	=20	=20	=20	=20	=20	=20	=20	=20	=20	=20	=20	=20	=20	=20
!	!	!	!	!	!	!	!	!	!	!	!	!	!	!	!	!LO:S:s=2:note:problem:note-level slur	!	!	!	!	!	!
4Fn\	.	8r	.	8r	.	(<4bnt\	.	2.r	.	2.r	.	2.r	.	(2.Bn^\	.	(2.a (>2.d\	.	2.r	.	2.r	2.r	.
.	.	8d 8F/	.	8a-X 8Bn/	.	.	.	.	.	.	.	.	.	.	.	.	.	.	.	.	.	.
.	.	.	.	.	.	16qqa/LL	.	.	.	.	.	.	.	.	.	.	.	.	.	.	.	.
.	.	.	.	.	.	16qqb/JJ)	.	.	.	.	.	.	.	.	.	.	.	.	.	.	.	.
*	*	*tremolo	*	*tremolo	*	*	*	*	*	*	*	*	*	*	*	*	*	*	*	*	*	*
4r	.	8dL 8F/	.	8a-L 8B/	.	(8.aa-X\L	.	.	.	.	.	.	.	.	.	.	.	.	.	.	.	.
.	.	8d 8F/	.	8a- 8B/	.	.	.	.	.	.	.	.	.	.	.	.	.	.	.	.	.	.
.	.	.	.	.	.	16b\Jk	.	.	.	.	.	.	.	.	.	.	.	.	.	.	.	.
4F\	.	8d 8F/	.	8a- 8B/	.	16aa-\LL	.	.	.	.	.	.	.	.	.	.	.	.	.	.	.	.
.	.	.	.	.	.	16b\	.	.	.	.	.	.	.	.	.	.	.	.	.	.	.	.
.	.	8dJ 8F/	.	8a-J 8B/	.	16aa-\	.	.	.	.	.	.	.	.	.	.	.	.	.	.	.	.
.	.	.	.	.	.	16b\JJ)	.	.	.	.	.	.	.	.	.	.	.	.	.	.	.	.
*	*	*Xtremolo	*	*Xtremolo	*	*	*	*	*	*	*	*	*	*	*	*	*	*	*	*	*	*
=21	=21	=21	=21	=21	=21	=21	=21	=21	=21	=21	=21	=21	=21	=21	=21	=21	=21	=21	=21	=21	=21	=21
*	*	*	*	*	*	*	*	*	*	*	*	*	*	*	*	*^	*	*^	*	*	*	*
.	.	.	.	.	.	8qdd/	.	.	.	.	.	.	.	.	.	.	.	.	.	.	.	.	.	.
4E-\	.	8r	.	8r	.	(16cc\LL	.	2.r	.	2.r	.	2.r	.	2.c\)	.	2.g/))	2.e-\	.	4r	2.re	.	4r	4r	.
.	.	.	.	.	.	16bn\	.	.	.	.	.	.	.	.	.	.	.	.	.	.	.	.	.	.
.	.	8c 8E-/	.	8g 8c/	.	16cc\	.	.	.	.	.	.	.	.	.	.	.	.	.	.	.	.	.	.
.	.	.	.	.	.	16dd\JJ	.	.	.	.	.	.	.	.	.	.	.	.	.	.	.	.	.	.
*	*	*tremolo	*	*tremolo	*	*	*	*	*	*	*	*	*	*	*	*	*	*	*	*	*	*	*	*
4r	.	8cL 8E-/	.	8gL 8c/	.	8ee-\)	.	.	.	.	.	.	.	.	.	.	.	.	8.r	.	.	8.r	8.r	.
.	.	8c 8E-/	.	8g 8c/	.	8r	.	.	.	.	.	.	.	.	.	.	.	.	.	.	.	.	.	.
.	.	.	.	.	.	.	.	.	.	.	.	.	.	.	.	.	.	.	32cc/LLL	.	.	(32cc\LLL	(32ccc\LLL	.
.	.	.	.	.	.	.	.	.	.	.	.	.	.	.	.	.	.	.	32dd/JJ	.	.	32dd\JJ	32ddd\JJ	.
!LO:N:vis=2	!	!	!	!	!	!	!	!	!	!	!	!	!	!	!	!	!	!	!	!	!	!	!	!
4r	.	8c 8E-/	.	8g 8c/	.	4r	.	.	.	.	.	.	.	.	.	.	.	.	8ee-/J	.	.	8ee-\J)	8eee-\J)	.
.	.	8cJ 8E-/	.	8gJ 8c/	.	.	.	.	.	.	.	.	.	.	.	.	.	.	8r	.	.	8r	8r	.
*	*	*Xtremolo	*	*Xtremolo	*	*	*	*	*	*	*	*	*	*	*	*	*	*	*	*	*	*	*	*
*	*	*	*	*	*	*	*	*	*	*	*	*	*	*	*	*	*	*	*v	*v	*	*	*	*
=22	=22	=22	=22	=22	=22	=22	=22	=22	=22	=22	=22	=22	=22	=22	=22	=22	=22	=22	=22	=22	=22	=22	=22
4E-\	.	8r	.	8r	.	(4at/	.	2.r	.	2.r	.	2.r	.	(2.An\	.	((2.g-X/	2.e-\	.	2.c\	.	2.r	2.r	.
.	.	8c 8E-/	.	8g-X 8An/	.	.	.	.	.	.	.	.	.	.	.	.	.	.	.	.	.	.	.
.	.	.	.	.	.	16qqg#X/LL	.	.	.	.	.	.	.	.	.	.	.	.	.	.	.	.	.
.	.	.	.	.	.	16qqa/JJ)	.	.	.	.	.	.	.	.	.	.	.	.	.	.	.	.	.
*	*	*tremolo	*	*tremolo	*	*	*	*	*	*	*	*	*	*	*	*	*	*	*	*	*	*	*
4r	.	8cL 8E-/	.	8g-L 8A/	.	(8.gg-X\L	.	.	.	.	.	.	.	.	.	.	.	.	.	.	.	.	.
.	.	8c 8E-/	.	8g- 8A/	.	.	.	.	.	.	.	.	.	.	.	.	.	.	.	.	.	.	.
.	.	.	.	.	.	16a\Jk	.	.	.	.	.	.	.	.	.	.	.	.	.	.	.	.	.
4E-\	.	8c 8E-/	.	8g- 8A/	.	16gg-\LL	.	.	.	.	.	.	.	.	.	.	.	.	.	.	.	.	.
.	.	.	.	.	.	16a\	.	.	.	.	.	.	.	.	.	.	.	.	.	.	.	.	.
.	.	8cJ 8E-/	.	8g-J 8A/	.	16gg-\	.	.	.	.	.	.	.	.	.	.	.	.	.	.	.	.	.
.	.	.	.	.	.	16a\JJ)	.	.	.	.	.	.	.	.	.	.	.	.	.	.	.	.	.
*	*	*Xtremolo	*	*Xtremolo	*	*	*	*	*	*	*	*	*	*	*	*	*	*	*	*	*	*	*
*	*	*	*	*	*	*	*	*	*	*	*	*	*	*	*	*v	*v	*	*	*	*	*	*
!!LO:PB:g=original
=23	=23	=23	=23	=23	=23	=23	=23	=23	=23	=23	=23	=23	=23	=23	=23	=23	=23	=23	=23	=23	=23	=23
*	*	*	*	*	*	*	*	*	*	*	*	*	*	*	*	*	*	*^	*	*	*	*
!	!	!	!	!	!	!	!	!	!	!	!	!	!	!LO:TX:t=P:problem:brak zakończenia łuku	!	!	!LO:TX:t=P:problem:brak zakończenia łuku	!	!	!	!	!	!
.	.	.	.	.	.	(>8qcc/	.	.	.	.	.	.	.	.	.	.	.	.	.	.	.	.	.
4D-X\	.	8r	.	8r	.	16b-\LL	.	2.r	.	2.r	.	2.r	.	2.B-\)	.	2.f 2.B-/))	.	4cc/	2.d\	.	4r	4r	.
.	.	.	.	.	.	16a\	.	.	.	.	.	.	.	.	.	.	.	.	.	.	.	.	.
.	.	8B- 8F/	.	8d-X/	.	16b-\	.	.	.	.	.	.	.	.	.	.	.	.	.	.	.	.	.
.	.	.	.	.	.	16cc\JJ	.	.	.	.	.	.	.	.	.	.	.	.	.	.	.	.	.
*	*	*tremolo	*	*tremolo	*	*	*	*	*	*	*	*	*	*	*	*	*	*	*	*	*	*	*
4r	.	8B-L 8F/	.	8d-/L	.	8dd-X\)	.	.	.	.	.	.	.	.	.	.	.	8.r	.	.	8.r	8.r	.
.	.	8B- 8F/	.	8d-/	.	8r	.	.	.	.	.	.	.	.	.	.	.	.	.	.	.	.	.
.	.	.	.	.	.	.	.	.	.	.	.	.	.	.	.	.	.	(32b-/LLL	.	.	(32b-\LLL	(32bb-\LLL	.
.	.	.	.	.	.	.	.	.	.	.	.	.	.	.	.	.	.	32cc/JJJ	.	.	32cc\JJJ	32ccc\JJJ	.
4r	.	8B- 8F/	.	8d-/	.	4r	.	.	.	.	.	.	.	.	.	.	.	8dd-X/L)	.	.	8dd-X\L)	8ddd-X\L)	.
.	.	8B-J 8F/	.	8d-/J	.	.	.	.	.	.	.	.	.	.	.	.	.	8b-'/J	.	.	8b-'\J	8bb-'\J	.
.	f	.	.	.	f	.	f	.	.	.	.	.	.	.	.	.	.	.	.	f	.	.	.
*	*	*Xtremolo	*	*Xtremolo	*	*	*	*	*	*	*	*	*	*	*	*	*	*	*	*	*	*	*
=24	=24	=24	=24	=24	=24	=24	=24	=24	=24	=24	=24	=24	=24	=24	=24	=24	=24	=24	=24	=24	=24	=24	=24
*	*	*	*	*	*	*	*	*	*	*^	*	*	*	*	*	*^	*	*	*	*	*	*	*
.	.	.	.	.	.	8qaa/	.	.	.	.	.	.	.	.	.	.	.	.	.	(>8qa/	.	.	8qan/	8qaa/yy	.
*2\right	*	*	*	*	*	*	*	*	*	*	*	*	*	*	*	*	*	*	*	*	*	*	*	*	*
*tremolo	*	*	*	*	*	*	*	*2\right	*	*	*	*	*	*	*	*	*	*	*	*	*	*	*	*	*
!	!	!	!	!	!	!	!	!	!LO:DY:rj	!	!	!LO:DY:rj	!	!LO:DY:rj	!	!	!	!	!LO:DY:rj	!	!	!	!	!LO:TX:a:t=Col Vo. Io.	!
8G-X\L	.	8r	.	8r	.	4bb-T\	.	2.G-X\	f	8rA	4Ra\	f	8r	f	2.G-X\	.	2.eX/	2.B-\	f	4b-T/)	(2d-X\	.	4b-T/	4bb-T\yy	.
*	*	*	*	*	*	*	*	*	*	*tremolo	*	*	*	*	*	*	*	*	*	*	*	*	*	*	*
8G-\	.	8B- 8G-X/	.	8en 8d-X/	.	.	.	.	.	32Ree/LLL	.	.	16b-LL 16B-/	.	.	.	.	.	.	.	.	.	.	.	.
.	.	.	.	.	.	.	.	.	.	32Ree/	.	.	.	.	.	.	.	.	.	.	.	.	.	.	.
.	.	.	.	.	.	.	.	.	.	32Ree/	.	.	16b-J 16B-/	.	.	.	.	.	.	.	.	.	.	.	.
.	.	.	.	.	.	.	.	.	.	32Ree/JJ	.	.	.	.	.	.	.	.	.	.	.	.	.	.	.
*	*	*tremolo	*	*tremolo	*	*	*	*	*	*Xtremolo	*	*	*	*	*	*	*	*	*	*	*	*	*	*	*
.	.	.	.	.	.	(32qqaa/LLL	.	.	.	.	.	.	.	.	.	.	.	.	.	(>32qqa/LLL	.	.	(>32qqa/LLL	(y32qqaa/LLLyy	.
.	.	.	.	.	.	32qqbb-/JJJ	.	.	.	.	.	.	.	.	.	.	.	.	.	32qqb-/JJJ	.	.	32qqb-/JJJ	32qqbb-/JJJyy	.
8G-\	.	8B-L 8G-/	.	8eL 8d-/	.	(8.ddd-X\L)	.	.	.	8Ree/J	4rGG	.	8b-J 8B-/	.	.	.	.	.	.	8.dd-X/L	.	.	(>8.dd-X/L)	(y8.ddd-X\L)yy	.
8G-\	.	8B- 8G-/	.	8e 8d-/	.	.	.	.	.	8r	.	.	8r	.	.	.	.	.	.	.	.	.	.	.	.
.	.	.	.	.	.	16een\Jk	.	.	.	.	.	.	.	.	.	.	.	.	.	16eX/Jk	.	.	16en/Jk	16een\Jkyy	.
8G-\	.	8B- 8G-/	.	8e 8d-/	.	16ddd-\LL	.	.	.	4rA	4rFF	.	4r	.	.	.	.	.	.	16dd-/LL	4B-\)	.	16dd-/LL	16ddd-\LLyy	.
.	.	.	.	.	.	16ee\	.	.	.	.	.	.	.	.	.	.	.	.	.	16e/	.	.	16e/	16ee\yy	.
8G-\J	.	8B-J 8G-/	.	8eJ 8d-/	.	16ddd-\	.	.	.	.	.	.	.	.	.	.	.	.	.	16dd-/	.	.	16dd-/	16ddd-\yy	.
.	.	.	.	.	.	16ee\JJ)	.	.	.	.	.	.	.	.	.	.	.	.	.	16e/JJ)	.	.	16e/JJ)	16ee\JJ)yy	.
*	*	*Xtremolo	*	*Xtremolo	*	*	*	*	*	*	*	*	*	*	*	*	*	*	*	*	*	*	*	*	*
*	*	*	*	*	*	*	*	*	*	*	*	*	*	*	*	*	*v	*v	*	*	*	*	*	*	*
=25	=25	=25	=25	=25	=25	=25	=25	=25	=25	=25	=25	=25	=25	=25	=25	=25	=25	=25	=25	=25	=25	=25	=25	=25
.	.	.	.	.	.	8qgg/	.	.	.	.	.	.	.	.	.	.	.	.	(>8qg/	.	.	(8qg/	(y8qgg/yy	.
8F\L	.	8r	.	8r	.	(>16ff\LL	.	2.F\	.	8rA	4Ra\	.	8r	.	2.F\	.	2.f 2.AnX/	.	16f/LL	2.c\	.	16f/LL	16ff\LLyy	.
.	.	.	.	.	.	16een\	.	.	.	.	.	.	.	.	.	.	.	.	16eX/	.	.	16en/	16een\yy	.
*	*	*	*	*	*	*	*	*	*	*tremolo	*	*	*	*	*	*	*	*	*	*	*	*	*	*
8F\	.	8A 8F/	.	8f 8c/	.	16ff\	.	.	.	32Ree/LLL	.	.	16f/LL	.	.	.	.	.	16f/	.	.	16f/	16ff\yy	.
.	.	.	.	.	.	.	.	.	.	32Ree/	.	.	.	.	.	.	.	.	.	.	.	.	.	.
.	.	.	.	.	.	16gg\JJ	.	.	.	32Ree/	.	.	16f/J	.	.	.	.	.	16g/JJ	.	.	16g/JJ	16gg\JJyy	.
.	.	.	.	.	.	.	.	.	.	32Ree/JJ	.	.	.	.	.	.	.	.	.	.	.	.	.	.
*	*	*tremolo	*	*tremolo	*	*	*	*	*	*Xtremolo	*	*	*	*	*	*	*	*	*	*	*	*	*	*
8F\	.	8AL 8F/	.	8fL 8c/	.	8aa\L)	.	.	.	8Ree/J	4rGG	.	8f/J	.	.	.	.	.	8a/)	.	.	8a/L)	8aa\L)yy	.
8F\	.	8A 8F/	.	8f 8c/	.	16r	.	.	.	8r	.	.	8r	.	.	.	.	.	16r	.	.	16r	16ryy	.
.	.	.	.	.	.	(32aa\LL	.	.	.	.	.	.	.	.	.	.	.	.	(32a/LLL	.	.	(32a/LL	(y32aa\LLyy	.
.	.	.	.	.	.	32bb-\JJJ	.	.	.	.	.	.	.	.	.	.	.	.	32b-/JJJ	.	.	32b-/JJJ	32bb-\JJJyy	.
8F\	.	8A 8F/	.	8f 8c/	.	8ccc\L)	.	.	.	4rA	4rFF	.	4r	.	.	.	.	.	8cc/L)	.	.	8cc/L)	8ccc\L)yy	.
8F\J	.	8AJ 8F/	.	8fJ 8c/	.	8ff'\J	.	.	.	.	.	.	.	.	.	.	.	.	8f'/J	.	.	8f'/J	8ff'\Jyy	.
*	*	*Xtremolo	*	*Xtremolo	*	*	*	*	*	*	*	*	*	*	*	*	*	*	*	*	*	*	*	*
=26	=26	=26	=26	=26	=26	=26	=26	=26	=26	=26	=26	=26	=26	=26	=26	=26	=26	=26	=26	=26	=26	=26	=26	=26
*	*	*	*	*	*	*	*	*	*	*	*	*	*	*	*	*	*^	*	*	*	*	*	*	*
.	.	.	.	.	.	(8qaa/	.	.	.	.	.	.	.	.	.	.	.	.	.	8qa/	.	.	8qa/	(y8qaa/yy	.
!	!	!	!	!	!	!	!	!	!	!	!	!	!	!	!	!	!	!	!	!	!LO:TX:b:t=P:problem:zbędna ligatura w źródle	!	!	!	!
8G-X\L	.	8r	.	8r	.	4bb-T\)	.	2.G-X\	.	8r	4Ra\	.	8r	.	2.G-X\	.	2.eX/	2.B-\	.	4b-/	(2d-X\	.	(4b-T/	4bb-T\)yy	.
*	*	*	*	*	*	*	*	*	*	*tremolo	*	*	*	*	*	*	*	*	*	*	*	*	*	*	*
8G-\	.	8B- 8G-X/	.	8en 8d-X/	.	.	.	.	.	32Ree/LLL	.	.	16b-LL 16B-/	.	.	.	.	.	.	.	.	.	.	.	.
.	.	.	.	.	.	.	.	.	.	32Ree/	.	.	.	.	.	.	.	.	.	.	.	.	.	.	.
.	.	.	.	.	.	.	.	.	.	32Ree/	.	.	16b-JJ 16B-/	.	.	.	.	.	.	.	.	.	.	.	.
.	.	.	.	.	.	.	.	.	.	32Ree/JJ	.	.	.	.	.	.	.	.	.	.	.	.	.	.	.
.	.	.	.	.	.	(32qqaa/LLL	.	.	.	.	.	.	.	.	.	.	.	.	.	32qqa/LLL	.	.	32qqa/LLL	(y32qqaa/LLLyy	.
.	.	.	.	.	.	32qqbb-/JJJ	.	.	.	.	.	.	.	.	.	.	.	.	.	32qqb-/JJJ	.	.	32qqb-/JJJ)	32qqbb-/JJJyy	.
*	*	*tremolo	*	*tremolo	*	*	*	*	*	*Xtremolo	*	*	*tremolo	*	*	*	*	*	*	*	*	*	*	*	*
8G-\	.	8B-L 8G-/	.	8eL 8d-/	.	(8.ddd-X\L)	.	.	.	8Ree/	4Ra\	.	8b-L 8B-/	.	.	.	.	.	.	(8.dd-X/L	.	.	(>8.dd-X/L	(y8.ddd-X\L)yy	.
8G-\	.	8B- 8G-/	.	8e 8d-/	.	.	.	.	.	8Ree/	.	.	8b- 8B-/	.	.	.	.	.	.	.	.	.	.	.	.
.	.	.	.	.	.	16een\Jk	.	.	.	.	.	.	.	.	.	.	.	.	.	16eX/Jk	.	.	16en/Jk	16een\Jkyy	.
8G-\	.	8B- 8G-/	.	8e 8d-/	.	16ddd-\LL	.	.	.	8Ree/	4Ra\	.	8b- 8B-/	.	.	.	.	.	.	16dd-/LL	4B-\)	.	16dd-/LL	16ddd-\LLyy	.
.	.	.	.	.	.	16ee\	.	.	.	.	.	.	.	.	.	.	.	.	.	16e/	.	.	16e/	16ee\yy	.
8G-\J	.	8B-J 8G-/	.	8eJ 8d-/	.	16ddd-\	.	.	.	8Ree/J	.	.	8b-J 8B-/	.	.	.	.	.	.	16dd-/	.	.	16dd-/	16ddd-\yy	.
.	.	.	.	.	.	16ee\JJ)	.	.	.	.	.	.	.	.	.	.	.	.	.	16e/JJ)	.	.	16e/JJ)	16ee\JJ)yy	.
*Xtremolo	*	*Xtremolo	*	*Xtremolo	*	*	*	*	*	*	*	*	*Xtremolo	*	*	*	*	*	*	*	*	*	*	*	*
*	*	*	*	*	*	*	*	*	*	*	*	*	*	*	*	*	*	*	*	*v	*v	*	*	*	*
!!LO:PB:g=original
=27	=27	=27	=27	=27	=27	=27	=27	=27	=27	=27	=27	=27	=27	=27	=27	=27	=27	=27	=27	=27	=27	=27	=27	=27
8F\	.	8A 8F/	.	8f 8c/	.	8ff\	.	8F\	.	8Ree/	8Ra\	.	8ffL 8a\	.	8A\	.	8f/L	8f\L	.	8f 8A/	.	8f/	8ff\	.
8r	.	8r	.	8r	.	8r	.	16F\LL	.	8r	8ryy	.	16ffL 16f\	.	8r	.	16f/L	16f\L	.	8r	.	8r	8r	.
.	.	.	.	.	.	.	.	16F\JJ	.	.	.	.	16ffJJ 16f\	.	.	.	16f/JJ	16f\JJ	.	.	.	.	.	.
8r	.	8r	.	8r	.	8r	.	8F\	.	8r	8ryy	.	8ff 8f\	.	8r	.	8f/	8f\	.	8r	.	8r	8r	.
*	*	*	*	*	*	*	*	*	*	*tremolo	*	*	*	*	*	*	*	*	*	*	*	*	*	*
8F\L	.	8f\L	.	8aL 8f/	.	8ccL 8f/	.	8F\L	.	32Ree/LLL	8Ra\L	.	8ccL 8a\	.	8F\L	.	8f/L	8f\L	.	8ccL 8a\	.	8aa\L	8ccc\L	.
.	.	.	.	.	.	.	.	.	.	32Ree/	.	.	.	.	.	.	.	.	.	.	.	.	.	.
.	.	.	.	.	.	.	.	.	.	32Ree/	.	.	.	.	.	.	.	.	.	.	.	.	.	.
.	.	.	.	.	.	.	.	.	.	32Ree/JJ	.	.	.	.	.	.	.	.	.	.	.	.	.	.
*	*	*	*	*	*	*	*	*	*	*Xtremolo	*	*	*	*	*	*	*	*	*	*	*	*	*	*
8B-\	.	8B-\	.	8b- 8f/	.	8dd 8f/	.	8BB-\	.	8Ree/	8Ra\	.	8dd 8b-\	.	8B-\	.	8f/	8B-\	.	8dd 8b-\	.	8bb-\	8ddd\	.
8D\J	.	8d\J	.	8b-J 8f/	.	8ffJ 8b-/	.	8D\J	.	8Ree/J	8Ra\J	.	8ffJ 8b-\	.	8D\J	.	8f/J	8B-\J	.	8ffJ 8b-\	.	8bb-\J	8fff\J	.
=28	=28	=28	=28	=28	=28	=28	=28	=28	=28	=28	=28	=28	=28	=28	=28	=28	=28	=28	=28	=28	=28	=28	=28	=28
*	*	*	*	*	*	*	*	*rep	*	*rep	*rep	*	*	*	*	*	*	*	*	*	*	*	*	*
8F\	.	8f\	.	8a 8f/	.	8cc 8f/	.	8F\	.	8Ree/	8Ra\	.	8ccL 8a\	.	8F\	.	8f/L	8f\L	.	8cc 8a\	.	8aa\	8ccc\	.
8r	.	8r	.	8r	.	8r	.	16F\LL	.	8r	8ryy	.	16ffL 16f\	.	8r	.	16f/L	16f\L	.	8r	.	8r	8r	.
.	.	.	.	.	.	.	.	16F\JJ	.	.	.	.	16ffJJ 16f\	.	.	.	16f/JJ	16f\JJ	.	.	.	.	.	.
8r	.	8r	.	8r	.	8r	.	8F\	.	8r	8ryy	.	8ff 8f\	.	8r	.	8f/	8f\	.	8r	.	8r	8r	.
*	*	*	*	*	*	*	*	*	*	*tremolo	*	*	*	*	*	*	*	*	*	*	*	*	*	*
8F\L	.	8f\L	.	8aL 8f/	.	8ccL 8f/	.	8F\L	.	32Ree/LLL	8Ra\L	.	8ccL 8a\	.	8F\L	.	8f/L	8f\L	.	8ccL 8a\	.	8aa\L	8ccc\L	.
.	.	.	.	.	.	.	.	.	.	32Ree/	.	.	.	.	.	.	.	.	.	.	.	.	.	.
.	.	.	.	.	.	.	.	.	.	32Ree/	.	.	.	.	.	.	.	.	.	.	.	.	.	.
.	.	.	.	.	.	.	.	.	.	32Ree/JJ	.	.	.	.	.	.	.	.	.	.	.	.	.	.
*	*	*	*	*	*	*	*	*	*	*Xtremolo	*	*	*	*	*	*	*	*	*	*	*	*	*	*
8B-\	.	8B-\	.	8b- 8f/	.	8dd 8f/	.	8BB-\	.	8Ree/	8Ra\	.	8dd 8b-\	.	8B-\	.	8f/	8B-\	.	8dd 8b-\	.	8bb-\	8ddd\	.
8D\J	.	8d\J	.	8b-J 8f/	.	8ffJ 8b-/	.	8D\J	.	8Ree/J	8Ra\J	.	8ffJ 8b-\	.	8D\J	.	8f/J	8B-\J	.	8ffJ 8b-\	.	8bb-\J	8fff\J	.
*	*	*	*	*	*	*	*	*Xrep	*	*Xrep	*Xrep	*	*	*	*	*	*	*	*	*	*	*	*	*
=29	=29	=29	=29	=29	=29	=29	=29	=29	=29	=29	=29	=29	=29	=29	=29	=29	=29	=29	=29	=29	=29	=29	=29	=29
8F\	.	8f\	.	8a 8f/	.	8cc 8f/	.	8F\	.	8Ree/	8Ra\	.	8cc 8a\	.	8F\	.	8f/	8f\	.	8cc 8a\	.	8aa\L	8ccc\L|	.
8r	.	8r	.	8r	.	(16ff\LL	.	8r	.	8r	8ryy	.	8r	.	8r	.	8r	8ryy	.	8r	.	(16ff\L	(16ff\L	.
.	.	.	.	.	.	16een\JJ	.	.	.	.	.	.	.	.	.	.	.	.	.	.	.	16een\JJ	16een\JJ	.
4r	.	4r	.	4r	.	16ff\LL	.	4r	.	4r	4ryy	.	4r	.	4r	.	4r	4ryy	.	4r	.	16ff\LL	16ff\LL	.
.	.	.	.	.	.	16ee\	.	.	.	.	.	.	.	.	.	.	.	.	.	.	.	16ee\	16ee\	.
.	.	.	.	.	.	16ff\	.	.	.	.	.	.	.	.	.	.	.	.	.	.	.	16ff\	16ff\	.
.	.	.	.	.	.	16ee\JJ	.	.	.	.	.	.	.	.	.	.	.	.	.	.	.	16ee\JJ	16ee\JJ	.
4r	.	4r	.	4r	.	16ff\LL	.	4r	.	4r	4ryy	.	4r	.	4r	.	4r	4ryy	.	4r	.	16ff\LL	16ff\LL	.
.	.	.	.	.	.	16ee\	.	.	.	.	.	.	.	.	.	.	.	.	.	.	.	16ee\	16ee\	.
.	.	.	.	.	.	16ff\	.	.	.	.	.	.	.	.	.	.	.	.	.	.	.	16ff\	16ff\	.
!	!	!	!	!	!	!LO:TX:a:t=[segno]:problem:na kresce taktowej	!	!	!	!	!	!	!	!	!	!	!	!	!	!	!	!	!	!
!	!	!	!	!	!	!LO:TX:b:i:t=d'al segno\nal fine e poi\nTrio.	!	!	!	!	!	!	!	!	!	!	!	!	!	!	!	!	!LO:TX:a:t=[segno]:problem:na kresce taktowej	!
.	.	.	.	.	.	16ee-X\JJ)	.	.	.	.	.	.	.	.	.	.	.	.	.	.	.	16ee-X\JJ)	16ee-X\JJ)	.
*	*	*	*	*	*	*	*	*	*	*v	*v	*	*	*	*	*	*v	*v	*	*	*	*	*	*
!!LO:PB:g=original
=30||	=30||	=30||	=30||	=30||	=30||	=30||	=30||	=30||	=30||	=30||	=30||	=30||	=30||	=30||	=30||	=30||	=30||	=30||	=30||	=30||	=30||	=30||
*>D	*>D	*>D	*>D	*>D	*>D	*>D	*>D	*>D	*>D	*>D	*>D	*>D	*>D	*>D	*>D	*>D	*>D	*>D	*>D	*>D	*>D	*>D
*k[b-e-a-]	*	*k[b-e-a-]	*	*k[b-e-a-]	*	*k[b-e-a-]	*	*k[b-e-a-]	*	*k[b-e-a-]	*	*k[b-e-a-]	*	*k[b-e-a-]	*	*k[b-e-a-]	*	*k[b-e-a-]	*	*k[b-e-a-]	*k[b-e-a-]	*
*M3/4	*	*M3/4	*	*M3/4	*	*M3/4	*	*M3/4	*	*M3/4	*	*M3/4	*	*M3/4	*	*M3/4	*	*M3/4	*	*M3/4	*M3/4	*
!	!	!	!	!	!	!	!	!	!	!	!	!	!	!	!	!	!	!	!	!	!LO:TX:a:t=[segno]:problem:na kresce taktowej	!
!	!	!	!	!	!	!LO:TX:a:t=[segno]:problem:na kresce taktowej	!	!	!	!	!	!	!	!	!	!	!	!	!	!	!LO:TX:a:i:t=Trio.	!
8r	.	8r	.	8r	.	8r	.	8E-\	.	8r	.	8r	.	8r	.	8r	.	8r	.	8r	8r	.
=||	=||	=||	=||	=||	=||	=||	=||	=||	=||	=||	=||	=||	=||	=||	=||	=||	=||	=||	=||	=||	=||	=||
8r	.	8r	.	8r	.	8r	.	8r	.	8ryy	.	8r	.	16r	.	16r	.	8r	.	8ryy	8r	.
.	.	.	.	.	.	.	.	.	.	.	.	.	.	16B-\	.	16e-|> 16G/	.	.	.	.	.	.
4r	.	4r	.	4r	.	4r	.	4r	.	2ryy	.	8.r	.	2e-\	.	2g|> 2B-/	.	8.r	.	2ryy	8.r	.
.	.	.	.	.	.	.	.	.	.	.	.	16B-/KL|>	.	.	.	.	.	16b-/|>	.	.	16b-\|	.
4r	.	4r	.	4r	.	4r	.	4r	.	.	.	8e-/|>	.	.	.	.	.	8ee-/L|>	.	.	8ee-\L|	.
.	.	.	.	.	.	.	.	.	.	.	.	16r	.	.	.	.	.	16r	.	.	16r	.
.	.	.	.	.	.	.	.	.	.	.	.	16g/Jk|>	.	.	.	.	.	16gg/Jk|>	.	.	16gg\Jk|	.
=31	=31	=31	=31	=31	=31	=31	=31	=31	=31	=31	=31	=31	=31	=31	=31	=31	=31	=31	=31	=31	=31	=31
2.r	.	2.r	.	2.r	.	2.r	.	4E-\	.	2.ryy	.	4B-/|>	.	8.r	.	8.r	.	4b-/|>	.	2.ryy	4b-\	.
.	.	.	.	.	.	.	.	.	.	.	.	.	.	16B-\|	.	16e- 16G/	.	.	.	.	.	.
.	.	.	.	.	.	.	.	4r	.	.	.	8.r	.	4e-\	.	4g 4B-/	.	8.r	.	.	8.r	.
.	.	.	.	.	.	.	.	.	.	.	.	16B-/KL|>	.	.	.	.	.	16b-/|>	.	.	16b-\	.
.	.	.	.	.	.	.	.	4r	.	.	.	8e-/|>	.	4B-\	.	4e- 4G/	.	8ee-/L|>	.	.	8ee-\L	.
.	.	.	.	.	.	.	.	.	.	.	.	16r	.	.	.	.	.	16r	.	.	16r	.
.	.	.	.	.	.	.	.	.	.	.	.	16g/Jk|>	.	.	.	.	.	16bb-/Jk|>	.	.	16gg\Jk	.
=32	=32	=32	=32	=32	=32	=32	=32	=32	=32	=32	=32	=32	=32	=32	=32	=32	=32	=32	=32	=32	=32	=32
*	*	*	*	*	*	*	*	*	*	*	*	*	*	*	*	*^	*	*^	*	*	*	*
2.r	.	2.r	.	2.r	.	2.r	.	4BB-/	.	2.ryy	.	(>[>4cc/	.	8.r	.	8.r	8.ryy	.	[4ccc/	8.r	.	2.ryy	([4ccc^<\	.
.	.	.	.	.	.	.	.	.	.	.	.	.	.	16A-\	.	16B-/	16B-\	.	.	16d\	.	.	.	.
.	.	.	.	.	.	.	.	4ryy	.	.	.	16cc/LL]	.	2A-\	.	2f 2B-/	2ryy	.	16ccc/LL]	2d\	.	.	16ccc\LL]	.
.	.	.	.	.	.	.	.	.	.	.	.	16b-/	.	.	.	.	.	.	16bb-/	.	.	.	16bb-\	.
.	.	.	.	.	.	.	.	.	.	.	.	16a-/	.	.	.	.	.	.	16aa-/	.	.	.	16aa-\|	.
.	.	.	.	.	.	.	.	.	.	.	.	16f/JJ	.	.	.	.	.	.	16ff/JJ	.	.	.	16ff\JJ	.
.	.	.	.	.	.	.	.	4ryy	.	.	.	16d/LL	.	.	.	.	.	.	16dd/LL	.	.	.	16dd\LL	.
.	.	.	.	.	.	.	.	.	.	.	.	16B-/	.	.	.	.	.	.	16b-/	.	.	.	16b-\	.
.	.	.	.	.	.	.	.	.	.	.	.	16c/	.	.	.	.	.	.	16cc/	.	.	.	16cc\	.
.	.	.	.	.	.	.	.	.	.	.	.	16d/JJ)	.	.	.	.	.	.	16dd/JJ	.	.	.	16dd\JJ)	.
*	*	*	*	*	*	*	*	*	*	*	*	*	*	*	*	*v	*v	*	*	*	*	*	*	*
!!LO:PB:g=original
=33	=33	=33	=33	=33	=33	=33	=33	=33	=33	=33	=33	=33	=33	=33	=33	=33	=33	=33	=33	=33	=33	=33	=33
!	!	!	!	!LO:TX:b:i:t=pizz	!	!	!	!	!	!	!	!	!	!	!	!	!	!	!	!	!	!	!
2.r	.	8G/L	.	8e-/L	.	(16ff\LL	.	2.r	.	2.r	.	8e-L 8G/	.	8G\L	.	8e-L 8G/	.	(16ff/LL	8e-\L	.	(16ff\LL	(16ff\LL	.
.	.	.	.	.	.	16ee-\	.	.	.	.	.	.	.	.	.	.	.	16ee-/	.	.	16ee-\	16ee-\	.
.	.	8G/	.	8e-/	.	16dd\	.	.	.	.	.	8e-J 8G/	.	8G\J	.	8e-J 8G/	.	16dd/	8e-\	.	16dd\	16dd\	.
.	.	.	.	.	.	16ee-\JJ	.	.	.	.	.	.	.	.	.	.	.	16ee-/JJ)	.	.	16ee-\JJ)	16ee-\JJ)	.
.	.	8B-/	.	8f/	.	16gg\LL	.	.	.	.	.	8fL 8B-/	.	8B-\L	.	8fL 8B-/	.	(16gg/LL	8f\	.	(16gg\LL	(16gg\LL	.
.	.	.	.	.	.	16ff\	.	.	.	.	.	.	.	.	.	.	.	16ff/	.	.	16ff\	16ff\	.
.	.	8B-/J	.	8f/J	.	16een\	.	.	.	.	.	8fJ 8B-/	.	8B-\J	.	8fJ 8B-/	.	16eeX/	8f\J	.	16een\	16een\	.
.	.	.	.	.	.	16ff\JJ)	.	.	.	.	.	.	.	.	.	.	.	16ff/JJ)	.	.	16ff\JJ	16ff\JJ	.
.	.	8e-\L	.	8g/L	.	8gg\	.	.	.	.	.	8gL 8e-/	.	8e-\	.	8g 8e-\	.	8gg/L	8g\	.	8gg\L)	8gg\L)	.
!	!	!	!	!LO:TX:b:i:t=l'arco	!	!	!	!	!	!	!	!	!	!	!	!	!	!	!	!	!	!	!
.	.	16r	.	16r	.	16r	.	.	.	.	.	16r	.	8r	.	8r	.	16rgg	8re	.	16r	16r	.
.	.	(16b-\Jk	.	(>16b-/Jk	.	(16bb-\	.	.	.	.	.	(>16b-/Jk	.	.	.	.	.	16bb-/Jk	.	.	(16bb-\Jk|	(16bb-\Jk|	.
=34	=34	=34	=34	=34	=34	=34	=34	=34	=34	=34	=34	=34	=34	=34	=34	=34	=34	=34	=34	=34	=34	=34	=34
4E-\	.	4B-/)	.	4B-/)	.	4b-\)	.	4E-\	.	2.ryy	.	4B-/)	.	8.r	.	8.r	.	4b-/	2.r	.	4b-\)	4b-\)	.
.	.	.	.	.	.	.	.	.	.	.	.	.	.	16B-\	.	16e- 16G/	.	.	.	.	.	.	.
!LO:N:vis=1	!	!	!	!	!	!	!	!	!	!	!	!	!	!	!	!	!	!	!	!	!	!	!
2r	.	4r	.	4r	.	4r	.	4r	.	.	.	8.r	.	2e-\	.	2g 2B-/	.	8.r	.	.	4r	8.r	.
.	.	.	.	.	.	.	.	.	.	.	.	16B-/KL|>	.	.	.	.	.	16b-/KL	.	.	.	16b-\KL	.
.	.	4r	.	4r	.	4r	.	4r	.	.	.	8e-/|>	.	.	.	.	.	8ee-/	.	.	4r	8ee-\	.
.	.	.	.	.	.	.	.	.	.	.	.	16r	.	.	.	.	.	16r	.	.	.	16r	.
.	.	.	.	.	.	.	.	.	.	.	.	16g/Jk|>	.	.	.	.	.	16gg/Jk	.	.	.	16gg\Jk	.
!!LO:PB:g=original
=35	=35	=35	=35	=35	=35	=35	=35	=35	=35	=35	=35	=35	=35	=35	=35	=35	=35	=35	=35	=35	=35	=35	=35
!	!	!	!	!	!	!	!	!	!	!	!	!	!	!	!	!	!	!	!	!	!	!LO:TX:t=P:problem:skreślone takty [2]	!
2.r	.	2.r	.	2.r	.	4r	.	4E-\	.	2.r	.	4B-/	.	8.r	.	8.r	.	4b-/	2.r	.	4r	4b-\	.
.	.	.	.	.	.	.	.	.	.	.	.	.	.	16B-\	.	16e- 16G/	.	.	.	.	.	.	.
.	.	.	.	.	.	8.r	.	4r	.	.	.	8.r	.	2e-\	.	2g 2B-/	.	4r	.	.	8.r	8.r	.
.	.	.	.	.	.	16b-\KL|	.	.	.	.	.	16B-/KL	.	.	.	.	.	.	.	.	16b-\KL	16b-\KL	.
.	.	.	.	.	.	8ee-\|	.	4r	.	.	.	8e-/	.	.	.	.	.	4r	.	.	8ee-\	8ee-\	.
.	.	.	.	.	.	16r	.	.	.	.	.	16r	.	.	.	.	.	.	.	.	16r	16r	.
.	.	.	.	.	.	16gg\Jk|	.	.	.	.	.	16g/Jk	.	.	.	.	.	.	.	.	16gg\Jk	16gg\Jk	.
=36	=36	=36	=36	=36	=36	=36	=36	=36	=36	=36	=36	=36	=36	=36	=36	=36	=36	=36	=36	=36	=36	=36	=36
*	*	*	*	*	*	*	*	*	*	*	*	*	*	*	*	*^	*	*	*	*	*	*	*
!	!	!	!	!	!	!	!	!	!LO:HP:a	!	!	!	!	!	!	!	!	!	!	!	!	!	!	!
4D\	.	8r	.	8r	.	(4.bb-\	.	4D\	<	2.r	.	(>4.b-/	.	(2d\	.	2g/	2B-\	<	2b-/	2g\	.	(4.bb-\	(4.bb-\	.
.	.	8g\L	<	8b-L 8d/	<	.	<	.	.	.	.	.	.	.	.	.	.	.	.	.	.	.	.	.
4r	.	8g\	.	8b- 8d/	.	.	.	4r	.	.	.	.	.	.	.	.	.	.	.	.	<	.	.	.
.	.	8g\J	.	8b-J 8d/	.	16aan\LL	.	.	.	.	.	16an/LL	.	.	.	.	.	.	.	.	.	16aan\LL	16aan\LL	.
.	.	.	.	.	.	16gg\JJ	.	.	.	.	.	16g/JJ	.	.	.	.	.	.	.	.	.	16gg\JJ	16gg\JJ	.
8D\	.	8r	.	8r	.	16ff#X\LL)	.	8D\	.	.	.	16f#X/LL)	.	4D\)	.	4f#X/	4c\	.	4cc/	4a\	.	16ff#X\LL)	16ff#X\LL)	.
.	.	.	.	.	.	32r	.	.	.	.	.	32r	.	.	.	.	.	.	.	.	.	32r	32r	.
.	.	.	.	.	.	(32eee-\K	.	.	.	.	.	(>32ee-/K|>	.	.	.	.	.	.	.	.	.	32ee-\K	(32eee-\K	.
8r	.	8a-\	.	8cc 8d/	.	16ddd\)	.	8r	[[	.	.	16dd/)	.	.	.	.	.	.	.	.	.	16dd\	16ddd\)	.
.	.	.	.	.	.	32r	.	.	.	.	.	32r	.	.	.	.	.	.	.	.	.	32r	32r	.
.	.	.	[[	.	[[	32ff#\JJk|	[	.	.	.	.	(>32f#/JJk|>	.	.	.	.	.	[[	.	.	[[	32ff#\JJk	32ff#\JJk|	.
*	*	*	*	*	*	*	*	*	*	*	*	*	*	*	*	*v	*v	*	*	*	*	*	*	*
=37	=37	=37	=37	=37	=37	=37	=37	=37	=37	=37	=37	=37	=37	=37	=37	=37	=37	=37	=37	=37	=37	=37	=37
*^	*	*	*	*	*	*	*	*	*	*^	*	*^	*	*	*	*	*	*	*	*	*	*	*
8G\	8ryy	.	8g\	.	8b- 8d/	.	8gg\	.	8G\	.	8r	8ryy	.	8g/)	8r	.	8G\	.	8g 8B-/	.	8b-/	8g\	.	8gg\	8gg\	.
*	*	*	*	*	*	*	*	*	*	*	*tremolo	*	*	*	*	*	*	*	*	*	*	*	*	*	*	*
!	!	!LO:DY:rj	!	!LO:DY:rj	!	!	!	!LO:DY:rj	!	!LO:DY:rj	!	!	!LO:DY:rj	!	!	!	!	!	!	!LO:DY:rj	!	!	!LO:DY:rj	!	!	!LO:DY:rj
2F/	2F 2BB-\	ff	2a-X 2B-\	ff	[8bb- 8b- 8d\	.	([8bb- [8b- 8B-\	ff	2BB-/	ff	32Ree/LLL	8Ra\L	f	([8b-/	2f\	.	[2A-X\	.	[2f [>2B-/	ff	2dd 2a-\	2ryy	ff	[8bb-\	[8bb-\	ff
.	.	.	.	.	.	.	.	.	.	.	32Ree/	.	.	.	.	.	.	.	.	.	.	.	.	.	.	.
.	.	.	.	.	.	.	.	.	.	.	32Ree/	.	.	.	.	.	.	.	.	.	.	.	.	.	.	.
.	.	.	.	.	.	.	.	.	.	.	32Ree/JJ	.	.	.	.	.	.	.	.	.	.	.	.	.	.	.
*	*	*	*	*	*	*	*	*	*	*	*Xtremolo	*	*	*	*	*	*	*	*	*	*	*	*	*	*	*
.	.	.	.	.	(16bb-]LL 16b-\	.	16bb-]LL 16b-\]	.	.	.	8Ree/J	8Ra\J	.	16b-/LL]	.	.	.	.	.	.	.	.	.	(16bb-\LL]	16bb-\LL]	.
.	.	.	.	.	16aa-\	.	16aa-\	.	.	.	.	.	.	16a-X/	.	.	.	.	.	.	.	.	.	16aa-X\	(16aa-X\	.
.	.	.	.	.	16ff\	.	16ff\	.	.	.	8r	8ryy	.	16f/	.	.	.	.	.	.	.	.	.	16ff\	16ff\	.
.	.	.	.	.	16dd\JJ	.	16dd\JJ	.	.	.	.	.	.	16d/JJ	.	.	.	.	.	.	.	.	.	16dd\JJ	16dd\JJ	.
.	.	.	.	.	16b-/LL	.	16b-/LL	.	.	.	4r	4ryy	.	16B-/LL	.	.	.	.	.	.	.	.	.	16b-\LL	16b-\LL	.
.	.	.	.	.	16a-/	.	16a-/	.	.	.	.	.	.	16a-/	.	.	.	.	.	.	.	.	.	16aa-\	16aa-\	.
8F/	8F 8BB-\	.	8a- 8B-\	.	16f/	.	16f/	.	8BB-/	.	.	.	.	16f/	8f\	.	8A-\]	.	8f] 8B-/]	.	8dd 8a-\	8ryy	.	16ff\	16ff\	.
.	.	.	.	.	16d/JJ)	.	16d/JJ)	.	.	.	.	.	.	16d/JJ)	.	.	.	.	.	.	.	.	.	16dd\JJ	16dd\JJ	.
*	*	*	*	*	*	*	*	*	*	*	*v	*v	*	*	*	*	*	*	*	*	*	*	*	*	*	*
=38	=38	=38	=38	=38	=38	=38	=38	=38	=38	=38	=38	=38	=38	=38	=38	=38	=38	=38	=38	=38	=38	=38	=38	=38	=38
4E-/	4E-\	.	4g 4B-\	.	4e-/	.	4e-/	.	4E-\	.	2.r	.	4e-/	4e-\	.	8G\L	.	8e-L 8G/	.	4ee- 4g\	4ryy	.	4ee-\)	4ee-\)	.
.	.	.	.	.	.	.	.	.	.	.	.	.	.	.	.	16r	.	16r	p	.	.	.	.	.	.
.	.	.	.	.	.	.	.	.	.	.	.	.	.	.	.	16B-\Jk	.	16e-Jk 16G/	.	.	.	.	.	.	.
4r	4ryy	.	4r	.	4r	.	4r	.	4r	.	.	.	8.r	4r	.	8e-\	.	8g 8B-/	.	8.r	4rc	.	4r	8.r	.
.	.	.	.	.	.	.	.	.	.	.	.	.	.	.	.	8r	.	8r	.	.	.	.	.	.	.
.	.	.	.	.	.	.	.	.	.	.	.	.	16B-/KL	.	.	.	.	.	.	16b-/KL	.	.	.	16b-\KL	.
4r	4ryy	.	4r	.	4r	.	4r	.	4r	.	.	.	8e-/	4r	.	8B-\	.	8e- 8G/	.	8ee-/	4rc	.	4r	8ee-\	.
.	.	.	.	.	.	.	.	.	.	.	.	.	16r	.	.	8r	.	8r	.	16r	.	.	.	16r	.
.	.	.	.	.	.	.	.	.	.	p	.	.	16g/Jk	.	.	.	.	.	.	16gg/Jk	.	.	.	16gg\Jk	.
*v	*v	*	*	*	*	*	*	*	*	*	*	*	*v	*v	*	*	*	*	*	*	*	*	*	*	*
=39	=39	=39	=39	=39	=39	=39	=39	=39	=39	=39	=39	=39	=39	=39	=39	=39	=39	=39	=39	=39	=39	=39	=39
2.r	.	2.r	.	2.r	.	2.r	.	4E-\	.	2.r	.	4B-/	.	8.r	.	8.r	.	4b-/	2.r	.	2.r	4b-\	.
.	.	.	.	.	.	.	.	.	.	.	.	.	.	16B-\	.	16e- 16G/	.	.	.	.	.	.	.
.	.	.	.	.	.	.	.	4r	.	.	.	8.r	.	8e-\	.	8g 8B-/	.	8.r	.	.	.	8.r	.
.	.	.	.	.	.	.	.	.	.	.	.	.	.	8r	.	8r	.	.	.	.	.	.	.
.	.	.	.	.	.	.	.	.	.	.	.	16B-/KL	.	.	.	.	.	16b-/KL	.	.	.	16b-\KL	.
.	.	.	.	.	.	.	.	4r	.	.	.	8e-/	.	8B-\	.	8e- 8G/	.	8ee-/	.	.	.	8ee-\	.
.	.	.	.	.	.	.	.	.	.	.	.	16r	.	8r	.	8r	.	16r	.	.	.	16r	.
.	.	.	.	.	.	.	.	.	.	.	.	16g/Jk	.	.	.	.	.	16gg/Jk	.	.	.	16gg\Jk	.
!!LO:PB:g=original
=40	=40	=40	=40	=40	=40	=40	=40	=40	=40	=40	=40	=40	=40	=40	=40	=40	=40	=40	=40	=40	=40	=40	=40
*	*	*	*	*	*	*	*	*	*	*	*	*^	*	*	*	*	*	*	*	*	*	*	*
2.ryy	.	2.ryy	.	2.r	.	2.r	.	4BB-/	.	2.r	.	([4cc/	2.rd	.	8.r	.	8.r	.	([4ccc/	8.r	.	2.r	([4ccc\	.
.	.	.	.	.	.	.	.	.	.	.	.	.	.	.	16A-\	.	16B-/	.	.	16d\	.	.	.	.
.	.	.	.	.	.	.	.	4r	.	.	.	16cc/LL]	.	.	2A-\	.	2f 2B-/	.	16ccc/LL]	2d\	.	.	16ccc\LL]	.
.	.	.	.	.	.	.	.	.	.	.	.	16b-/	.	.	.	.	.	.	16bb-/	.	.	.	16bb-\	.
.	.	.	.	.	.	.	.	.	.	.	.	16a-/	.	.	.	.	.	.	16aa-/	.	.	.	16aa-\	.
.	.	.	.	.	.	.	.	.	.	.	.	16f/JJ	.	.	.	.	.	.	16ff/JJ	.	.	.	16ff\JJ	.
.	.	.	.	.	.	.	.	4r	.	.	.	16d/LL	.	.	.	.	.	.	16dd/LL	.	.	.	16dd\LL	.
.	.	.	.	.	.	.	.	.	.	.	.	16B-/	.	.	.	.	.	.	16b-/	.	.	.	16b-\	.
.	.	.	.	.	.	.	.	.	.	.	.	16c/	.	.	.	.	.	.	16cc/	.	.	.	16cc\	.
.	.	.	.	.	.	.	.	.	.	.	.	16d/JJ)	.	.	.	.	.	.	16dd/JJ)	.	.	.	16dd\JJ)	.
*	*	*	*	*	*	*	*	*	*	*	*	*v	*v	*	*	*	*	*	*	*	*	*	*	*
=41	=41	=41	=41	=41	=41	=41	=41	=41	=41	=41	=41	=41	=41	=41	=41	=41	=41	=41	=41	=41	=41	=41	=41
!	!	!	!	!LO:TX:b:i:t=pizz&colon;	!	!	!	!	!	!	!	!	!	!	!	!	!	!	!	!	!	!	!
2.r	.	8G/L	.	8e-/L	.	(16ff\LL	.	2.r	.	2.r	.	8e-L 8G/	.	8G\L	.	8e-L 8G/	.	(16ff/LL	8e-\L	.	(16ff\LL	(16ff\LL	.
.	.	.	.	.	.	16ee-\	.	.	.	.	.	.	.	.	.	.	.	16ee-/	.	.	16ee-\	16ee-\	.
.	.	8G/	.	8e-/	.	16dd\	.	.	.	.	.	8e- 8G/	.	8G\	.	8e- 8G/	.	16dd/	8e-\	.	16dd\	16dd\	.
.	.	.	.	.	.	16ee-\JJ	.	.	.	.	.	.	.	.	.	.	.	16ee-/JJ)	.	.	16ee-\JJ)	16ee-\JJ)	.
.	.	8B-/	.	8f/	.	16gg\LL	.	.	.	.	.	8f 8B-/	.	8B-\	.	8f 8B-/	.	(16gg/LL	8f\	.	(16gg\LL	(16gg\LL	.
.	.	.	.	.	.	16ff\	.	.	.	.	.	.	.	.	.	.	.	16ff/	.	.	16ff\	16ff\	.
.	.	8B-/J	.	8f/J	.	16een\	.	.	.	.	.	8fJ 8B-/	.	8B-\J	.	8fJ 8B-/	.	16eeX/	8f\J	.	16een\	16een\	.
.	.	.	.	.	.	16ff\JJ	.	.	.	.	.	.	.	.	.	.	.	16ff/JJ)	.	.	16ff\JJ)	16ff\JJ	.
.	.	8e-\	.	8g/	.	8gg\)	.	.	.	.	.	8g 8e-/	.	8e-\	.	8g 8e-\	.	8gg/L	8g\	.	8gg\L	8gg\L)	.
.	.	8r	.	8r	.	16r	.	.	.	.	.	8r	.	8r	.	8r	.	16rgg	8re	.	16r	16r	.
.	.	.	.	.	.	(16bb-\	.	.	.	.	.	.	.	.	.	.	.	(16bb-/Jk	.	.	(16bb-\Jk	(16bb-\Jk	.
=42	=42	=42	=42	=42	=42	=42	=42	=42	=42	=42	=42	=42	=42	=42	=42	=42	=42	=42	=42	=42	=42	=42	=42
!LO:TX:b:i:t=pizz.	!	!	!	!	!	!	!	!	!	!	!	!	!	!	!	!	!	!	!	!	!	!	!
4E-\	.	8.r	.	8.r	.	8b-\)	.	4E-\	.	2.r	.	4B-/	.	8.r	.	8.r	.	4b-/)	2.r	.	4b-\)	4b-\)	.
.	.	.	.	.	.	16r	.	.	.	.	.	.	.	.	.	.	.	.	.	.	.	.	.
!	!	!LO:TX:b:i:t=pizz	!	!LO:N:vis=16	!	!LO:TX:b:i:t=pizz	!	!	!	!	!	!	!	!	!	!	!	!	!	!	!	!	!
.	.	16G/	.	32B-/	.	16e-/	.	.	.	.	.	.	.	16B-\	.	16e- 16G/	.	.	.	.	.	.	.
!	!	!	!	!LO:N:vis=16	!	!	!	!	!	!	!	!	!	!	!	!	!	!	!	!	!	!	!
.	.	.	.	32r	.	.	.	.	.	.	.	.	.	.	.	.	.	.	.	.	.	.	.
4r	.	8B-/	.	8e-/	.	8g/	.	4r	.	.	.	8.r	.	8e-\	.	8g 8B-/	.	8.r	.	.	8.r	8.r	.
.	.	8r	.	8r	.	8r	.	.	.	.	.	.	.	8r	.	8r	.	.	.	.	.	.	.
.	.	.	.	.	.	.	.	.	.	.	.	16B-/KL	.	.	.	.	.	16b-/KL	.	.	16b-\KL	16b-\KL	.
4r	.	8G/	.	8B-/	.	8e-/	.	4r	.	.	.	8e-/	.	8B-\	.	8e- 8G/	.	8ee-/	.	.	8ee-\	8ee-\	.
.	.	8r	.	8r	.	8r	.	.	.	.	.	16r	.	8r	.	8r	.	16r	.	.	16r	16r	.
.	.	.	.	.	.	.	.	.	.	.	.	16g/Jk	.	.	.	.	.	16gg/Jk	.	.	16gg\Jk	16gg\Jk	.
=43	=43	=43	=43	=43	=43	=43	=43	=43	=43	=43	=43	=43	=43	=43	=43	=43	=43	=43	=43	=43	=43	=43	=43
!	!	!	!	!	!	!	!	!	!	!	!	!	!	!	!	!	!	!	!	!	!LO:TX:a:t=Col Picolo	!	!
4AA-/	.	8.r	.	8.r	.	8.r	.	4AA-/	.	2.r	.	(16en/LL	.	8.r	.	8.r	.	(16eeX/LL	2.re	.	(y16een\LLyy	(16een\LL	.
.	.	.	.	.	.	.	.	.	.	.	.	16f/	.	.	.	.	.	16ff/	.	.	16ff\yy	16ff\	.
.	.	.	.	.	.	.	.	.	.	.	.	16g/	.	.	.	.	.	16gg/	.	.	16gg\yy	16gg\	.
.	.	16A-/	.	16c/	.	16c/	.	.	.	.	.	16f/JJ)	.	16A-\	.	16c 16A-/	.	16ff/JJ	.	.	16ff\JJyy	16ff\JJ	.
4r	.	8A-/	.	8c/	.	8f/	.	4r	.	.	.	8c/L	.	8c\	.	8f 8A-/	.	8cc/L)	.	.	8cc\L)yy	8cc\L)	.
.	.	8r	.	8r	.	8r	.	.	.	.	.	16r	.	8r	.	8r	.	16r	.	.	16ryy	16r	.
.	.	.	.	.	.	.	.	.	.	.	.	16cc/K	.	.	.	.	.	16ccc/K	.	.	(y16ccc\Jkyy	(16ccc\Jk	.
4r	.	8A-/	.	8c/	.	8f/	.	4r	.	.	.	8a-/	.	8c\	.	8f 8A-/	.	8aa-/	.	.	8aa-\L)yy	8aa-\L)	.
.	.	8r	.	8r	.	8r	.	.	.	.	.	16r	.	8r	.	8r	.	16r	.	.	16ryy	16r	.
.	.	.	.	.	.	.	.	.	.	.	.	16f/Jk	.	.	.	.	.	16ff/Jk	.	.	16ff\Jkyy	16ff\Jk	.
!!LO:PB:g=original
=44	=44	=44	=44	=44	=44	=44	=44	=44	=44	=44	=44	=44	=44	=44	=44	=44	=44	=44	=44	=44	=44	=44	=44
*	*	*	*	*	*	*	*	*	*	*	*	*^	*	*	*	*	*	*	*	*	*	*	*
4BB-/	.	8.r	.	8.r	.	8.r	.	8BB-/	.	2.r	.	(16e-/LL	2.r	.	8.r	.	8.r	.	(16ee-/LL	2.rdd	.	(y16ee-X\LLyy	(16ee-X\LL	.
.	.	.	.	.	.	.	.	.	.	.	.	16f/	.	.	.	.	.	.	16ff/	.	.	16ff\yy	16ff\	.
.	.	.	.	.	.	.	.	8r	.	.	.	16e-/	.	.	.	.	.	.	16ee-/	.	.	16ee-\yy	16ee-\	.
!	!	!LO:N:vis=16	!	!	!	!	!	!	!	!	!	!	!	!	!	!	!	!	!	!	!	!	!	!
.	.	32B-/	.	16e-/	.	16g/	.	.	.	.	.	16d/JJ	.	.	16e-\|	.	16g|> 16B-/	.	16dd/JJ	.	.	16dd\JJyy	16dd\JJ	.
!	!	!LO:N:vis=16	!	!	!	!	!	!	!	!	!	!	!	!	!	!	!	!	!	!	!	!	!	!
.	.	32r	.	.	.	.	.	.	.	.	.	.	.	.	.	.	.	.	.	.	.	.	.	.
4r	.	8e-\	.	8g/	.	8b-/	.	4r	.	.	.	16e-/LL	.	.	(4g\	.	(>4b- 4B-/	.	16ee-/LL	.	.	16ee-\LLyy	16ee-\LL	.
.	.	.	.	.	.	.	.	.	.	.	.	16f/	.	.	.	.	.	.	16ff/	.	.	16ff\yy	16ff\	.
.	.	8r	.	8r	.	8r	.	.	.	.	.	16g/	.	.	.	.	.	.	16gg/	.	.	16gg\yy	16gg\	.
.	.	.	.	.	.	.	.	.	.	.	.	16a-/JJ	.	.	.	.	.	.	16aa-/JJ	.	.	16aa-\JJyy	16aa-\JJ	.
4r	.	8B-/	.	8e-/	.	8g/	.	4r	.	.	.	16b-/LL	.	.	4e-\)	.	4g 4B-/)	.	16bb-/LL	.	.	16bb-\LLyy	16bb-\LL	.
.	.	.	.	.	.	.	.	.	.	.	.	16cc/	.	.	.	.	.	.	16ccc/)	.	.	16ccc\yy	16ccc\	.
.	.	8r	.	8r	.	8r	.	.	.	.	.	16dd/	.	.	.	.	.	.	16ddd/	.	.	16ddd\yy	16ddd\	.
.	.	.	.	.	.	.	.	.	.	.	.	16ee-/JJ)	.	.	.	.	.	.	16eee-/JJ	.	.	16eee-\JJ)yy	16eee-\JJ)	.
=45	=45	=45	=45	=45	=45	=45	=45	=45	=45	=45	=45	=45	=45	=45	=45	=45	=45	=45	=45	=45	=45	=45	=45	=45
8BB-/	.	8d\	.	8f/	.	8a-/	.	8BB-/	.	2.r	.	16b-/LL	2.rd	.	8f\	.	8a- 8B-/	.	(16bb-/LL	2.r	.	(y16bb-\LLyy	(16bb-\LL	.
.	.	.	.	.	.	.	.	.	.	.	.	16a-/	.	.	.	.	.	.	16aa-/	.	.	16aa-\yy	16aa-\	.
8r	.	8r	.	8r	.	8r	.	8r	.	.	.	16f/	.	.	8r	.	8r	.	16ff/)	.	.	16ff\)yy	16ff\)	.
.	.	.	.	.	.	.	.	.	.	.	.	32r	.	.	.	.	.	.	32r	.	.	32ryy	32r	.
.	.	.	.	.	.	.	.	.	.	.	.	32d/JJk	.	.	.	.	.	.	32dd/JJk|	.	.	32dd\JJk|yy	32dd\JJk|	.
8r	.	4r	.	4r	.	4r	.	8r	.	.	.	4f/	.	.	(4d\	.	(>4a- 4B-/	.	(4ff/	.	.	(y4ff\yy	(4ff\	.
8BB-/L	.	.	.	.	.	.	.	8BB-/L	.	.	.	.	.	.	.	.	.	.	.	.	.	.	.	.
!	!	!	!	!	!	!LO:TX:t=P:problem:fermata na kresce taktowej	!	!	!	!	!	!	!	!	!	!	!	!	!	!	!	!	!	!
8E-/J	.	4r	.	4r	.	4r;	.	8E-/J	.	.	.	8e-/	.	.	8e-\)	.	8g 8B-/)	.	8ee-/)	.	.	8ee-\)yy	8ee-\)	.
!	!	!	!	!	!	!	!	!	!	!	!	!	!	!	!	!	!	!	!	!	!	!	!LO:TX:t=P:problem:fermata na kresce taktowej	!
8r	.	.	.	.	.	.	.	8r	.	.	.	8r	.	.	8r	.	8r	.	8r	.	.	8ryy	8r;	.
*	*	*	*	*	*	*	*	*	*	*	*	*v	*v	*	*	*	*	*	*	*	*	*	*	*
=46:|!	=46:|!	=46:|!	=46:|!	=46:|!	=46:|!	=46:|!	=46:|!	=46:|!	=46:|!	=46:|!	=46:|!	=46:|!	=46:|!	=46:|!	=46:|!	=46:|!	=46:|!	=46:|!	=46:|!	=46:|!	=46:|!	=46:|!	=46:|!
*>E	*>E	*>E	*>E	*>E	*>E	*>E	*>E	*>E	*>E	*>E	*>E	*>E	*>E	*>E	*>E	*>E	*>E	*>E	*>E	*>E	*>E	*>E	*>E
*	*	*	*	*	*	*	*	*	*	*^	*	*	*	*	*	*	*	*	*	*	*	*	*
*	*	*tremolo	*	*tremolo	*	*	*	*	*	*	*	*	*	*	*	*	*	*	*	*	*	*	*	*
!LO:TX:t=P:problem:mixed beam	!	!	!	!	!	!	!	!	!	!	!	!	!	!	!	!	!	!	!	!	!	!	!	!
!LO:TX:a:t=arco	!LO:DY:rj	!	!	!LO:TX:a:t=arco	!LO:DY:rj	!	!LO:DY:rj	!	!LO:DY:rj	!	!	!LO:DY:rj	!	!	!	!	!	!LO:DY:rj	!	!	!	!	!	!
8BB-/L	f	8B-/L	.	8d/L	f	(16ff\LL	f	8BB-/	f	2.r	4Ra\	f	2.r	.	2.d\	.	2.f 2.B-/	f	2.rdd	2.B-\	.	2.r	2.r	.
.	.	.	.	.	.	16gg\	.	.	.	.	.	.	.	.	.	.	.	.	.	.	.	.	.	.
8F\J	.	8F/	.	8f/	.	16ff\	.	8r	.	.	.	.	.	.	.	.	.	.	.	.	.	.	.	.
.	.	.	.	.	.	16dd\JJ)	.	.	.	.	.	.	.	.	.	.	.	.	.	.	.	.	.	.
*tremolo	*	*	*	*	*	*	*	*	*	*	*	*	*	*	*	*	*	*	*	*	*	*	*	*
8B-\L	.	8B-/	.	8d/	.	16b-'\LL	.	8BB-/	.	.	4Ra\	.	.	.	.	.	.	.	.	.	.	.	.	.
.	.	.	.	.	.	16b-'\	.	.	.	.	.	.	.	.	.	.	.	.	.	.	.	.	.	.
8F\	.	8F/	.	8f/	.	16b-'\	.	8r	.	.	.	.	.	.	.	.	.	.	.	.	.	.	.	.
.	.	.	.	.	.	16b-'\JJ	.	.	.	.	.	.	.	.	.	.	.	.	.	.	.	.	.	.
8B-\	.	8B-/	.	8d/	.	(16cc\LL	.	8BB-/	.	.	4Ra\	.	.	.	.	.	.	.	.	.	.	.	.	.
.	.	.	.	.	.	16b-\	.	.	.	.	.	.	.	.	.	.	.	.	.	.	.	.	.	.
8F\J	.	8F/J	.	8f/J	.	16an\	.	8r	.	.	.	.	.	.	.	.	.	.	.	.	.	.	.	.
.	.	.	.	.	.	16b-\JJ)	.	.	.	.	.	.	.	.	.	.	.	.	.	.	.	.	.	.
=47	=47	=47	=47	=47	=47	=47	=47	=47	=47	=47	=47	=47	=47	=47	=47	=47	=47	=47	=47	=47	=47	=47	=47	=47
*	*	*	*	*	*	*	*	*	*	*	*	*	*^	*	*	*	*	*	*	*	*	*	*	*
8An\L	.	8c/L	.	8e-/L	.	(16bn\LL	.	4AAn/	.	8rA	4Ra\	.	4r	4ryy	.	2.e-\	.	2.f 2.AX/	.	2.rdd	2.c\	.	4r	4r	.
.	.	.	.	.	.	16cc\	.	.	.	.	.	.	.	.	.	.	.	.	.	.	.	.	.	.	.
*	*	*	*	*	*	*	*	*	*	*tremolo	*	*	*	*	*	*	*	*	*	*	*	*	*	*	*
8F\	.	8F/	.	8f/	.	16dd\	.	.	.	32Ree/LLL	.	.	.	.	.	.	.	.	.	.	.	.	.	.	.
.	.	.	.	.	.	.	.	.	.	32Ree/	.	.	.	.	.	.	.	.	.	.	.	.	.	.	.
.	.	.	.	.	.	16cc\JJ	.	.	.	32Ree/	.	.	.	.	.	.	.	.	.	.	.	.	.	.	.
.	.	.	.	.	.	.	.	.	.	32Ree/JJ	.	.	.	.	.	.	.	.	.	.	.	.	.	.	.
*	*	*	*	*	*	*	*	*	*	*Xtremolo	*	*	*	*	*	*	*	*	*	*	*	*	*	*	*
8A\	.	8c/	.	8e-/	.	8ff\)	.	4r	.	8Ree/J	4rGG	.	8r	8ryy	.	.	.	.	.	.	.	.	16r	16r	.
.	.	.	.	.	.	.	.	.	.	.	.	.	.	.	.	.	.	.	.	.	.	.	(16bn\LL	(16bn\LL	.
8F\	.	8F/	.	8f/	.	8r	.	.	.	8r	.	.	16f/LL	16f\LL	.	.	.	.	.	.	.	.	16dd\	16dd\	.
.	.	.	.	.	.	.	.	.	.	.	.	.	16f/J	16f\J	.	.	.	.	.	.	.	.	16cc\JJ	16cc\JJ	.
8A\	.	8c/	.	8e-/	.	4r	.	4r	.	4rA	4rFF	.	8f/J	8f\J	.	.	.	.	.	.	.	.	8ff\)	8ff\)	.
8F\J	.	8F/J	.	8f/J	.	.	.	.	.	.	.	.	8r	8ryy	.	.	.	.	.	.	.	.	8r	8r	.
*	*	*	*	*	*	*	*	*	*	*	*	*	*v	*v	*	*	*	*	*	*	*	*	*	*	*
!!LO:PB:g=original
=48	=48	=48	=48	=48	=48	=48	=48	=48	=48	=48	=48	=48	=48	=48	=48	=48	=48	=48	=48	=48	=48	=48	=48	=48
8An\L	.	8c/L	.	8e-/L	.	(16ff\LL	.	4AAn/	.	2.r	4Ra\	.	2.r	.	(2.e-\	.	([2.f 2.AX/	.	2.rdd	(2.c\	.	2.r	2.r	.
.	.	.	.	.	.	16gg-X\	.	.	.	.	.	.	.	.	.	.	.	.	.	.	.	.	.	.
8F\	.	8F/	.	8f/	.	16ff\	.	.	.	.	.	.	.	.	.	.	.	.	.	.	.	.	.	.
.	.	.	.	.	.	16een\JJ)	.	.	.	.	.	.	.	.	.	.	.	.	.	.	.	.	.	.
8A\	.	8c/	.	8e-/	.	(16ff\LL	.	4FF/	.	.	4Ra\	.	.	.	.	.	.	.	.	.	.	.	.	.
.	.	.	.	.	.	16cc\	.	.	.	.	.	.	.	.	.	.	.	.	.	.	.	.	.	.
8F\	.	8F/	.	8f/	.	16cc\)	.	.	.	.	.	.	.	.	.	.	.	.	.	.	.	.	.	.
.	.	.	.	.	.	16cc'\JJ	.	.	.	.	.	.	.	.	.	.	.	.	.	.	.	.	.	.
8A\	.	8c/	.	8e-/	.	(16ff'\LL	.	4AA/	.	.	4Ra\	.	.	.	.	.	.	.	.	.	.	.	.	.
.	.	.	.	.	.	16cc\	.	.	.	.	.	.	.	.	.	.	.	.	.	.	.	.	.	.
8F\J	.	8F/J	.	8f/J	.	16ff\	.	.	.	.	.	.	.	.	.	.	.	.	.	.	.	.	.	.
.	.	.	.	.	.	16ee-X\JJ)	.	.	.	.	.	.	.	.	.	.	.	.	.	.	.	.	.	.
=49	=49	=49	=49	=49	=49	=49	=49	=49	=49	=49	=49	=49	=49	=49	=49	=49	=49	=49	=49	=49	=49	=49	=49	=49
*	*	*	*	*	*	*	*	*	*	*	*	*	*^	*	*	*	*	*	*	*	*	*	*	*
8B-\L	.	8B-/L	.	8d/L	.	(16cc#X\LL	.	4BB-/	.	8rA	4Ra\	.	4r	4ryy	.	2.d\)	.	2.f] 2.B-/)	.	2.rdd	2.B-\)	.	4r	4r	.
.	.	.	.	.	.	16dd\	.	.	.	.	.	.	.	.	.	.	.	.	.	.	.	.	.	.	.
*	*	*	*	*	*	*	*	*	*	*tremolo	*	*	*	*	*	*	*	*	*	*	*	*	*	*	*
8F\	.	8F/	.	8f/	.	16ee-\	.	.	.	32Ree/LLL	.	.	.	.	.	.	.	.	.	.	.	.	.	.	.
.	.	.	.	.	.	.	.	.	.	32Ree/	.	.	.	.	.	.	.	.	.	.	.	.	.	.	.
.	.	.	.	.	.	16dd\JJ	.	.	.	32Ree/	.	.	.	.	.	.	.	.	.	.	.	.	.	.	.
.	.	.	.	.	.	.	.	.	.	32Ree/JJ	.	.	.	.	.	.	.	.	.	.	.	.	.	.	.
*	*	*	*	*	*	*	*	*	*	*Xtremolo	*	*	*	*	*	*	*	*	*	*	*	*	*	*	*
8B-\	.	8B-/	.	8d/	.	8b-\)	.	4r	.	8Ree/J	4rGG	.	8r	8ryy	.	.	.	.	.	.	.	.	16r	16r	.
.	.	.	.	.	.	.	.	.	.	.	.	.	.	.	.	.	.	.	.	.	.	.	(16cc#X\LL	(16cc#X\LL	.
8F\J	.	8F/J	.	8f/J	.	8r	.	.	.	8r	.	.	16f/LL	16f\LL	.	.	.	.	.	.	.	.	16een\	16een\	.
.	.	.	.	.	.	.	.	.	.	.	.	.	16f/J	16f\J	.	.	.	.	.	.	.	.	16dd\JJ	16dd\JJ	.
*Xtremolo	*	*Xtremolo	*	*Xtremolo	*	*	*	*	*	*	*	*	*	*	*	*	*	*	*	*	*	*	*	*	*
8B-\	.	8B-/	.	8d/	.	8r	.	4r	.	4rA	4rFF	.	8f/J	8f\J	.	.	.	.	.	.	.	.	8b-\)	8b-\L)	.
8r	.	8r	.	8r	.	[8bb-\	.	.	.	.	.	.	8r	8ryy	.	.	.	.	.	.	.	.	8r	[8bb-\J	.
*	*	*	*	*	*	*	*	*	*	*v	*v	*	*	*	*	*	*	*	*	*	*	*	*	*	*
*	*	*	*	*	*	*	*	*	*	*	*	*v	*v	*	*	*	*	*	*	*	*	*	*	*
=50	=50	=50	=50	=50	=50	=50	=50	=50	=50	=50	=50	=50	=50	=50	=50	=50	=50	=50	=50	=50	=50	=50	=50
!	!	!	!	!	!	!LO:TUP:a:problem:klamra łukowa	!	!	!	!	!	!	!	!	!	!	!	!	!	!	!	!LO:TUP:a:problem:klamra łukowa, łuczek zamiast numeru	!
2.r	.	8dd\L	.	8ff\L	.	24bb-\LL]	.	2.r	.	2.r	.	2.r	.	2.r	.	2.r	.	(8dd/L	2.re	.	(8ff\L	24bb-\LL]	.
.	.	.	.	.	.	24ccc\	.	.	.	.	.	.	.	.	.	.	.	.	.	.	.	24ccc\	.
.	.	.	.	.	.	24bb-\J	.	.	.	.	.	.	.	.	.	.	.	.	.	.	.	24bb-\J	.
.	.	8cc\	.	8ee-\	.	8aan'\J	.	.	.	.	.	.	.	.	.	.	.	8cc/)	.	.	8ee-\)	8aan\J|	.
!	!	!	!	!	!	!LO:TUP:a:problem:klamra łukowa, łuczek zamiast numeru	!	!	!	!	!	!	!	!	!	!	!	!	!	!	!	!LO:TUP:a:problem:klamra łukowa	!
.	.	8b-\	.	8dd\	.	24gg\LL	.	.	.	.	.	.	.	.	.	.	.	(8b-/	.	.	(8dd\	24gg\LL	.
.	.	.	.	.	.	24aa\	.	.	.	.	.	.	.	.	.	.	.	.	.	.	.	24aa\	.
.	.	.	.	.	.	24gg\J	.	.	.	.	.	.	.	.	.	.	.	.	.	.	.	24gg\J	.
.	.	8an\	.	8cc\	.	8ff'\J	.	.	.	.	.	.	.	.	.	.	.	8a/)	.	.	8cc\)	8ff\J|	.
!	!	!	!	!	!	!LO:TUP:a:problem:klamra łukowa, łuczek zamiast numeru	!	!	!	!	!	!	!	!	!	!	!	!	!	!	!	!LO:TUP:a:problem:klamra łukowa, łuczek zamiast numeru	!
.	.	8g\	.	8b-\	.	24ee-\LL	.	.	.	.	.	.	.	.	.	.	.	(8g/	.	.	(8b-\	24ee-\LL	.
.	.	.	.	.	.	24ff\	.	.	.	.	.	.	.	.	.	.	.	.	.	.	.	24ff\	.
.	.	.	.	.	.	24ee-\J	.	.	.	.	.	.	.	.	.	.	.	.	.	.	.	24ee-\J	.
.	.	8f\J	.	8an\J	.	8dd'\J	.	.	.	.	.	.	.	.	.	.	.	8f/J)	.	.	8an\J)	8dd\J|	.
!!LO:PB:g=original
=51	=51	=51	=51	=51	=51	=51	=51	=51	=51	=51	=51	=51	=51	=51	=51	=51	=51	=51	=51	=51	=51	=51	=51
*	*	*	*	*	*	*	*	*	*	*	*	*	*	*	*	*^	*	*	*	*	*	*	*
!	!	!	!	!	!	!LO:TX:t=P:problem:diminuendolike accent	!	!	!	!	!	!	!	!	!	!	!	!	!	!	!	!	!LO:TX:a:t=Col Vo. Io.	!
4E-\	.	4e-\	.	4g/	.	(16dd^<\LL	.	2.r	.	2.r	.	2.r	.	4r	.	4r	4ryy	.	4e-/	4ryy	.	4g/	(y16dd\LLyy	.
.	.	.	.	.	.	16cc\	.	.	.	.	.	.	.	.	.	.	.	.	.	.	.	.	16cc\yy	.
.	.	.	.	.	.	16bn\	.	.	.	.	.	.	.	.	.	.	.	.	.	.	.	.	16bn\yy	.
.	.	.	.	.	.	16cc\JJ)	.	.	.	.	.	.	.	.	.	.	.	.	.	.	.	.	16cc\JJ)yy	.
!	!	!	!	!	!	!LO:TX:t=P:problem:diminuendolike accent	!	!	!	!	!	!	!	!	!	!	!	!	!	!	!	!	!	!
4C/	.	4e-\	.	4cc/	.	(16aan^<\LL	.	.	.	.	.	.	.	4C\	.	2g/	2e-\	.	2e-/	2e-\	.	4cc/	(y16aan\LLyy	.
.	.	.	.	.	.	16gg\	.	.	.	.	.	.	.	.	.	.	.	.	.	.	.	.	16gg\yy	.
.	.	.	.	.	.	16ff#X\	.	.	.	.	.	.	.	.	.	.	.	.	.	.	.	.	16ff#X\yy	.
.	.	.	.	.	.	16gg\JJ)	.	.	.	.	.	.	.	.	.	.	.	.	.	.	.	.	16gg\JJ)yy	.
4E-\	.	4e-\	.	4g/	.	(16ffn\LL	.	.	.	.	.	.	.	4E-\	.	.	.	.	.	.	.	4g/	(y16ffn\LLyy	.
.	.	.	.	.	.	16ee-\)	.	.	.	.	.	.	.	.	.	.	.	.	.	.	.	.	16ee-\)yy	.
.	.	.	.	.	.	(16dd\	.	.	.	.	.	.	.	.	.	.	.	.	.	.	.	.	(y16dd\yy	.
.	.	.	.	.	.	16cc\JJ)	.	.	.	.	.	.	.	.	.	.	.	.	.	.	.	.	16cc\JJ)yy	.
=52	=52	=52	=52	=52	=52	=52	=52	=52	=52	=52	=52	=52	=52	=52	=52	=52	=52	=52	=52	=52	=52	=52	=52	=52
*	*	*tremolo	*	*tremolo	*	*	*	*	*	*	*	*	*	*	*	*	*	*	*	*	*	*	*	*
4F\	.	8d\L	.	8fL 8B-/	.	(16bn\LL	.	2.r	.	2.r	.	2.r	.	2F\	.	2f 2B-/	2ryy	.	2d/	2d\	.	4f/	(y16bn\LLyy	.
.	.	.	.	.	.	16cc\	.	.	.	.	.	.	.	.	.	.	.	.	.	.	.	.	16cc\yy	.
.	.	8d\	.	8f 8B-/	.	16b\|	.	.	.	.	.	.	.	.	.	.	.	.	.	.	.	.	16b\yy	.
.	.	.	.	.	.	16an\JJ	.	.	.	.	.	.	.	.	.	.	.	.	.	.	.	.	16an\JJyy	.
4r	.	8d\	.	8f 8B-/	.	16b\LL	.	.	.	.	.	.	.	.	.	.	.	.	.	.	.	4b-/	16b\LLyy	.
.	.	.	.	.	.	16dd\	.	.	.	.	.	.	.	.	.	.	.	.	.	.	.	.	16dd\yy	.
.	.	8d\J	.	8fJ 8B-/	.	16gg\	.	.	.	.	.	.	.	.	.	.	.	.	.	.	.	.	16gg\yy	.
*	*	*Xtremolo	*	*Xtremolo	*	*	*	*	*	*	*	*	*	*	*	*	*	*	*	*	*	*	*	*
.	.	.	.	.	.	16ff\JJ)	.	.	.	.	.	.	.	.	.	.	.	.	.	.	.	.	16ff\JJ)yy	.
4F\	.	8e-\L	.	8fL 8c/	.	(16gg\LL	.	.	.	.	.	.	.	4FF/	.	4f/	4e-\	.	4e-/	4c\	.	4an/	16gg\LLyy	.
.	.	.	.	.	.	16ff\	.	.	.	.	.	.	.	.	.	.	.	.	.	.	.	.	16ff\yy	.
.	.	8e-\J	.	8fJ 8c/	.	16g\	.	.	.	.	.	.	.	.	.	.	.	.	.	.	.	.	16g\yy	.
.	.	.	.	.	.	16a\JJ)	.	.	.	.	.	.	.	.	.	.	.	.	.	.	.	.	16a\JJyy	.
*	*	*	*	*	*	*	*	*	*	*	*	*	*	*	*	*v	*v	*	*	*	*	*	*	*
=53	=53	=53	=53	=53	=53	=53	=53	=53	=53	=53	=53	=53	=53	=53	=53	=53	=53	=53	=53	=53	=53	=53	=53
*	*	*	*	*	*	*	*	*	*	*^	*	*^	*	*	*	*	*	*	*	*	*	*	*
8B-\	.	8d\	.	8f 8B-/	.	8b-\	.	8r	.	8r	8ryy	.	8r	8ryy	.	8BB-/	.	8f 8B-/	.	8d/	8B-\	.	8b-\	8b-\	.
.	.	.	.	.	.	.	.	.	.	16qqRee/LL	.	.	.	.	.	.	.	.	.	.	.	.	.	.	.
.	.	.	.	.	.	.	.	.	.	16qqRee/JJ	.	.	.	.	.	.	.	.	.	.	.	.	.	.	.
4BB-^/	.	4f 4B-^<\	.	4dd 4f^/	.	4aa-X 4b- 4d^<\	.	4BB-/	.	4Ree/	4Ra\	.	4a-X 4d/	4ryy	.	4B-\	.	4f 4B-^/	.	4dd/	4f\	.	4aa-X^<\	4aa-X^<\	.
8r	.	8r	.	8r	.	8r	.	8r	.	8r	8ryy	.	16cc-/LL	16a-\LL	.	16c-X\LL	.	8r	.	16cc-X/LL	16a-\LL	.	16ccc-X\LL	8r	.
.	.	.	.	.	.	.	.	.	.	.	.	.	16cc-/JJ	16a-\JJ	.	16c-\JJ	.	.	.	16cc-/JJ	16a-\JJ	.	16ccc-\JJ	.	.
4r	.	4r	.	4r	.	4r	.	4r	.	4r	4ryy	.	8b-/L	8g\L	.	8.B-\L	.	4r	.	8.b-/L	8.g\L	.	8.bb-\L	4r	.
.	.	.	.	.	.	.	.	.	.	.	.	.	8a-/J	8f\J	.	.	.	.	.	.	.	.	.	.	.
.	.	.	.	.	.	.	.	.	.	.	.	.	.	.	.	16A-\Jk	.	.	.	16a-/Jk	16f\Jk	.	16aa-\Jk	.	.
*	*	*	*	*	*	*	*	*	*	*v	*v	*	*	*	*	*	*	*	*	*	*	*	*	*	*
=54	=54	=54	=54	=54	=54	=54	=54	=54	=54	=54	=54	=54	=54	=54	=54	=54	=54	=54	=54	=54	=54	=54	=54	=54
!	!	!	!	!	!	!LO:TX:a:t=[segno]:problem:na kresce taktowej	!	!	!	!	!	!	!	!	!	!	!	!	!	!	!	!	!LO:TX:a:t=[segno]:problem:na kresce taktowej	!
8r	.	8r	.	8r	.	8r	.	8r	.	8r	.	8g/	8e-\	.	8G\	.	8r	.	8g/	8e-\	.	8gg\	8r	.
*	*	*	*	*	*	*	*	*	*	*	*	*v	*v	*	*	*	*	*	*v	*v	*	*	*	*
==	==	==	==	==	==	==	==	==	==	==	==	==	==	==	==	==	==	==	==	==	==	==
*-	*-	*-	*-	*-	*-	*-	*-	*-	*-	*-	*-	*-	*-	*-	*-	*-	*-	*-	*-	*-	*-	*-
!!!system-decoration: (<s1,s2,s3,s4,s5,s6,s7,s8>{s9,s10}<s11,s12>)
!!!RDF**kern: > = above
!!!RDF**kern: < = below
!!!RDF**kern: | = vertical stroke
!!!ENC: Andrzej Kubiczek
!!!END: 2021-06-17
!!!ENC: Berenika Jozajtis
!!!END: 2021-06-09
